;This Gcode has been generated specifically for the LulzBot Mini
;Basic settings: Layer height: 0.25 Walls: 1 Fill: 20
;Filament Diameter: 2.85
;Nozzle Size: 0.5
G21                          ; metric values
G90                          ; absolute positioning
M82                          ; set extruder to absolute mode
M107                         ; start with the fan off
G92 E0                       ; set extruder position to 0
M140 S60; get bed heating up
G28                          ; home all
M109 S140                    ; set to cleaning temp and wait
G1 Z150 E-30 F75             ; suck up XXmm of filament
M109 S140                    ; heat up rest of way
G1 X45 Y174 F11520           ; move behind scraper
G1 Z0  F1200                 ; CRITICAL: set Z to height of top of scraper
G1 X45 Y174 Z-.5 F4000       ; wiping ; plunge into wipe pad
G1 X55 Y172 Z-.5 F4000       ; wiping
G1 X45 Y174 Z0 F4000         ; wiping
G1 X55 Y172 F4000            ; wiping
G1 X45 Y174 F4000            ; wiping
G1 X55 Y172 F4000            ; wiping
G1 X45 Y174 F4000            ; wiping
G1 X55 Y172 F4000            ; wiping
G1 X60 Y174 F4000            ; wiping
G1 X80 Y172 F4000            ; wiping
G1 X60 Y174 F4000            ; wiping
G1 X80 Y172 F4000            ; wiping
G1 X60 Y174 F4000            ; wiping
G1 X90 Y172 F4000            ; wiping
G1 X80 Y174 F4000            ; wiping
G1 X100 Y172 F4000           ; wiping
G1 X80 Y174 F4000            ; wiping
G1 X100 Y172 F4000           ; wiping
G1 X80 Y174 F4000            ; wiping
G1 X100 Y172 F4000           ; wiping
G1 X110 Y174 F4000           ; wiping
G1 X100 Y172 F4000           ; wiping
G1 X110 Y174 F4000           ; wiping
G1 X100 Y172 F4000           ; wiping
G1 X110 Y174 F4000           ; wiping
G1 X115 Y172 Z-0.5 F1000     ; wipe slower and bury noz in cleanish area
G1 Z10                       ; raise z
G28 X0 Y0                    ; home x and y
M109 S140                    ; set to probing temp
M204 S300                    ; Set probing acceleration
G29                          ; Probe
M204 S2000                   ; Restore standard acceleration
G1 X5 Y15 Z10 F5000          ; get out the way
G4 S1                        ; pause
M400                         ; clear buffer
M109 S205    ; set extruder temp and wait
G4 S15                       ; wait for bed to temp up
G1 Z2 E0 F75                 ; extrude filament back into nozzle
M140 S60; get bed temping up during first layer

;Layer count: 139
;LAYER:0
M107
G0 F10500 X25.251 Y59.070 Z0.425
;TYPE:SKIRT
G1 F900 X129.503 Y59.069 E4.34084
G1 X131.184 Y59.070 E4.41083
G1 X134.749 Y59.070 E4.55927
G1 X134.749 Y87.908 E5.76003
G1 X115.565 Y94.129 E6.59976
G1 X115.565 Y94.128 E6.59980
G1 X114.719 Y94.403 E6.63684
G1 X84.514 Y94.403 E7.89452
G1 X83.152 Y94.455 E7.95127
G1 X81.908 Y94.597 E8.00340
G1 X80.645 Y94.839 E8.05695
G1 X79.395 Y95.176 E8.11085
G1 X78.174 Y95.610 E8.16481
G1 X76.957 Y96.150 E8.22025
G1 X75.876 Y96.733 E8.27139
G1 X74.766 Y97.443 E8.32625
G1 X73.746 Y98.212 E8.37944
G1 X72.673 Y99.157 E8.43897
G1 X71.520 Y100.158 E8.50255
G1 X70.196 Y101.102 E8.57026
G1 X68.790 Y101.914 E8.63786
G1 X67.311 Y102.591 E8.70559
G1 X65.775 Y103.123 E8.77327
G1 X64.194 Y103.507 E8.84102
G1 X62.587 Y103.738 E8.90862
G1 X61.043 Y103.812 E8.97298
G1 X34.704 Y103.812 E10.06968
G1 X33.564 Y103.737 E10.11725
G1 X32.336 Y103.493 E10.16938
G1 X31.149 Y103.090 E10.22158
G1 X30.028 Y102.536 E10.27364
G1 X28.987 Y101.841 E10.32576
G1 X28.046 Y101.015 E10.37789
G1 X27.223 Y100.076 E10.42988
G1 X26.526 Y99.035 E10.48205
G1 X25.972 Y97.910 E10.53426
G1 X25.570 Y96.727 E10.58629
G1 X25.325 Y95.498 E10.63847
G1 X25.251 Y94.358 E10.68603
G1 X25.251 Y59.070 E12.15535
G1 F600 E10.65535
G1 Z0.525
G0 F10500 X29.500 Y63.319
;TYPE:WALL-INNER
G1 Z0.425
G1 F600 E12.15535
G1 F900 X130.500 Y63.319 E16.36079
G1 X130.500 Y84.819 E17.25600
G1 X114.048 Y90.154 E17.97615
G1 X84.422 Y90.154 E19.20971
G1 X82.907 Y90.212 E19.27284
G1 X82.825 Y90.215 E19.27626
G1 X81.269 Y90.393 E19.34147
G1 X79.686 Y90.696 E19.40858
G1 X78.129 Y91.117 E19.47574
G1 X76.606 Y91.657 E19.54302
G1 X75.164 Y92.297 E19.60871
G1 X75.087 Y92.331 E19.61221
G1 X73.707 Y93.076 E19.67751
G1 X72.348 Y93.945 E19.74468
G1 X71.058 Y94.917 E19.81193
G1 X69.879 Y95.956 E19.87736
G1 X68.888 Y96.816 E19.93200
G1 X67.893 Y97.525 E19.98287
G1 X66.840 Y98.134 E20.03352
G1 X65.725 Y98.644 E20.08457
G1 X64.582 Y99.040 E20.13494
G1 X63.380 Y99.332 E20.18644
G1 X62.188 Y99.503 E20.23658
G1 X60.939 Y99.563 E20.28865
G1 X34.845 Y99.563 E21.37515
G1 X34.118 Y99.515 E21.40549
G1 X33.437 Y99.380 E21.43440
G1 X32.782 Y99.158 E21.46319
G1 X32.155 Y98.848 E21.49232
G1 X31.580 Y98.464 E21.52111
G1 X31.062 Y98.009 E21.54981
G1 X30.597 Y97.478 E21.57920
G1 X30.215 Y96.908 E21.60777
G1 X29.905 Y96.277 E21.63705
G1 X29.683 Y95.626 E21.66568
G1 X29.547 Y94.942 E21.69472
G1 X29.500 Y94.220 E21.72485
G1 X29.500 Y63.319 E23.01150
G0 F10500 X39.001 Y78.415
G1 F900 X39.001 Y83.890 E23.23947
G1 X54.750 Y83.891 E23.89523
G1 X54.750 Y78.416 E24.12319
G1 X39.001 Y78.415 E24.77895
G0 F10500 X54.579 Y78.587
G0 X62.093 Y80.500
G1 F900 X62.274 Y81.859 E24.83604
G1 X62.804 Y83.123 E24.89311
G1 X63.646 Y84.205 E24.95019
G1 X64.743 Y85.029 E25.00732
G1 X66.018 Y85.537 E25.06447
G1 X67.378 Y85.694 E25.12147
G1 X68.706 Y85.497 E25.17737
G1 X69.938 Y84.968 E25.23320
G1 X70.994 Y84.140 E25.28907
G1 X71.802 Y83.070 E25.34490
G1 X72.309 Y81.829 E25.40072
G1 X72.483 Y80.500 E25.45653
G1 X72.309 Y79.170 E25.51238
G1 X71.802 Y77.928 E25.56824
G1 X70.994 Y76.860 E25.62400
G1 X69.938 Y76.032 E25.67987
G1 X68.706 Y75.503 E25.73570
G1 X67.378 Y75.306 E25.79160
G1 X66.018 Y75.463 E25.84860
G1 X64.743 Y75.971 E25.90575
G1 X63.647 Y76.795 E25.96284
G1 X62.804 Y77.875 E26.01989
G1 X62.274 Y79.140 E26.07700
G1 X62.093 Y80.500 E26.13413
G0 F10500 X62.904 Y83.065
G0 X64.800 Y84.929
G0 X67.376 Y85.579
G0 X69.878 Y84.869
G0 X71.702 Y83.013
G0 X102.284 Y81.150
G1 F900 X102.569 Y82.266 E26.18208
G1 X102.607 Y82.412 E26.18837
G1 X103.162 Y83.421 E26.23632
G1 X103.236 Y83.554 E26.24265
G1 X104.101 Y84.474 E26.29523
G1 X105.198 Y85.186 E26.34969
G1 X106.410 Y85.589 E26.40287
G1 X107.536 Y85.673 E26.44988
G1 X107.668 Y85.681 E26.45539
G1 X107.884 Y85.666 E26.46440
G1 X108.870 Y85.477 E26.50621
G1 X109.102 Y85.414 E26.51622
G1 X110.099 Y84.947 E26.56206
G1 X110.239 Y84.867 E26.56877
G1 X111.050 Y84.197 E26.61257
G1 X111.218 Y84.062 E26.62155
G1 X111.899 Y83.126 E26.66974
G1 X111.988 Y83.003 E26.67607
G1 X112.411 Y81.934 E26.72394
G1 X112.468 Y81.792 E26.73031
G1 X112.608 Y80.677 E26.77710
G1 X112.633 Y80.514 E26.78396
G1 X112.486 Y79.344 E26.83306
G1 X112.463 Y79.195 E26.83934
G1 X112.044 Y78.136 E26.88676
G1 X111.988 Y77.996 E26.89304
G1 X111.311 Y77.065 E26.94097
G1 X111.222 Y76.943 E26.94726
G1 X110.336 Y76.211 E26.99511
G1 X110.223 Y76.116 E27.00126
G1 X109.186 Y75.629 E27.04896
G1 X109.047 Y75.562 E27.05539
G1 X107.910 Y75.344 E27.10359
G1 X107.762 Y75.317 E27.10985
G1 X106.600 Y75.389 E27.15833
G1 X106.450 Y75.403 E27.16460
G1 X105.370 Y75.754 E27.21189
G1 X105.226 Y75.800 E27.21818
G1 X104.244 Y76.422 E27.26658
G1 X104.119 Y76.506 E27.27285
G1 X103.334 Y77.339 E27.32051
G1 X103.232 Y77.451 E27.32682
G1 X102.681 Y78.453 E27.37443
G1 X102.607 Y78.587 E27.38081
G1 X102.322 Y79.702 E27.42873
G1 X102.284 Y79.848 E27.43501
G1 X102.284 Y81.150 E27.48922
G0 F10500 X102.909 Y81.071
;TYPE:WALL-OUTER
G1 F900 X103.193 Y82.180 E27.53689
G1 X103.745 Y83.183 E27.58456
G1 X104.504 Y83.991 E27.63072
G1 X105.471 Y84.618 E27.67870
G1 X106.533 Y84.971 E27.72530
G1 X107.579 Y85.049 E27.76898
G1 X107.665 Y85.055 E27.77256
G1 X107.803 Y85.045 E27.77833
G1 X108.730 Y84.867 E27.81763
G1 X108.887 Y84.825 E27.82440
G1 X109.811 Y84.391 E27.86690
G1 X109.883 Y84.351 E27.87033
G1 X110.660 Y83.708 E27.91233
G1 X110.763 Y83.627 E27.91778
G1 X111.437 Y82.698 E27.96557
G1 X111.831 Y81.702 E28.01017
G1 X111.858 Y81.635 E28.01318
G1 X111.992 Y80.571 E28.05783
G1 X112.002 Y80.505 E28.06061
G1 X111.867 Y79.431 E28.10568
G1 X111.856 Y79.361 E28.10863
G1 X111.463 Y78.367 E28.15314
G1 X111.436 Y78.300 E28.15614
G1 X110.764 Y77.376 E28.20372
G1 X109.940 Y76.694 E28.24825
G1 X109.883 Y76.647 E28.25133
G1 X108.915 Y76.192 E28.29587
G1 X108.849 Y76.160 E28.29892
G1 X107.794 Y75.958 E28.34365
G1 X107.723 Y75.945 E28.34665
G1 X106.649 Y76.012 E28.39146
G1 X106.578 Y76.019 E28.39443
G1 X105.493 Y76.370 E28.44191
G1 X104.585 Y76.946 E28.48668
G1 X104.525 Y76.986 E28.48969
G1 X103.792 Y77.765 E28.53422
G1 X103.744 Y77.818 E28.53720
G1 X103.193 Y78.819 E28.58478
G1 X102.909 Y79.928 E28.63244
G1 X102.909 Y81.071 E28.68004
G0 F10500 X102.496 Y81.071
G0 X102.713 Y82.369
G0 X104.174 Y84.386
G0 X106.432 Y85.477
G0 X114.085 Y90.366
G0 X114.145 Y90.779
G1 F900 X84.434 Y90.779 E29.91714
G1 X82.932 Y90.836 E29.97973
G1 X82.874 Y90.839 E29.98215
G1 X81.364 Y91.011 E30.04543
G1 X79.827 Y91.306 E30.11059
G1 X78.315 Y91.714 E30.17580
G1 X76.837 Y92.238 E30.24109
G1 X75.362 Y92.893 E30.30829
G1 X74.025 Y93.615 E30.37156
G1 X72.705 Y94.459 E30.43680
G1 X71.454 Y95.402 E30.50203
G1 X70.289 Y96.429 E30.56669
G1 X69.270 Y97.312 E30.62284
G1 X68.233 Y98.051 E30.67586
G1 X67.130 Y98.688 E30.72889
G1 X65.959 Y99.224 E30.78252
G1 X64.750 Y99.643 E30.83579
G1 X63.510 Y99.944 E30.88892
G1 X62.244 Y100.126 E30.94218
G1 X60.948 Y100.188 E30.99620
G1 X34.819 Y100.188 E32.08416
G1 X34.040 Y100.136 E32.11667
G1 X33.272 Y99.984 E32.14927
G1 X32.545 Y99.737 E32.18124
G1 X31.840 Y99.389 E32.21397
G1 X31.200 Y98.962 E32.24601
G1 X30.619 Y98.452 E32.27820
G1 X30.101 Y97.860 E32.31095
G1 X29.671 Y97.219 E32.34309
G1 X29.326 Y96.517 E32.37566
G1 X29.079 Y95.790 E32.40763
G1 X28.925 Y95.021 E32.44029
G1 X28.875 Y94.250 E32.47246
G1 X28.875 Y62.694 E33.78638
G1 X131.125 Y62.694 E38.04386
G1 X131.125 Y85.273 E38.98401
G1 X114.145 Y90.779 E39.72726
G0 F10500 X114.085 Y90.366
G0 X72.081 Y81.823
G0 X71.700 Y81.668
G1 F900 X71.853 Y80.500 E39.77631
G1 X71.700 Y79.331 E39.82540
G1 X71.254 Y78.240 E39.87448
G1 X70.544 Y77.301 E39.92349
G1 X69.616 Y76.574 E39.97258
G1 X68.534 Y76.109 E40.02161
G1 X67.368 Y75.936 E40.07070
G1 X66.172 Y76.075 E40.12083
G1 X65.052 Y76.521 E40.17103
G1 X64.088 Y77.244 E40.22120
G1 X63.348 Y78.194 E40.27134
G1 X62.882 Y79.305 E40.32150
G1 X62.723 Y80.500 E40.37170
G1 X62.882 Y81.694 E40.42185
G1 X63.348 Y82.805 E40.47202
G1 X64.088 Y83.755 E40.52216
G1 X65.052 Y84.479 E40.57236
G1 X66.172 Y84.925 E40.62255
G1 X67.368 Y85.064 E40.67269
G1 X68.534 Y84.891 E40.72177
G1 X69.616 Y84.426 E40.77081
G1 X70.544 Y83.699 E40.81989
G1 X71.254 Y82.759 E40.86894
G1 X71.700 Y81.668 E40.91802
G0 F10500 X72.081 Y81.823
G0 X71.702 Y83.013
G0 X69.878 Y84.869
G0 X67.376 Y85.579
G0 X64.800 Y84.929
G0 X62.904 Y83.065
G0 X54.124 Y83.678
G0 X54.125 Y83.266
G1 F900 X54.125 Y79.041 E41.09394
G1 X39.626 Y79.040 E41.69765
G1 X39.626 Y83.265 E41.87357
G1 X54.125 Y83.266 E42.47728
G0 F10500 X54.498 Y84.108
;TYPE:SKIN
G1 F900 X67.745 Y97.355 E43.25732
G0 F10500 X68.263 Y96.990
G1 F900 X54.969 Y83.695 E44.04017
G0 F10500 X54.969 Y82.812
G1 F900 X68.777 Y96.620 E44.85325
G0 F10500 X69.248 Y96.207
G1 F900 X54.969 Y81.928 E45.69407
G0 F10500 X54.969 Y81.044
G1 F900 X69.720 Y95.795 E46.56268
G0 F10500 X70.191 Y95.383
G1 F900 X54.969 Y80.160 E47.45906
G0 F10500 X54.579 Y83.720
G0 X53.614 Y84.108
G1 F900 X67.185 Y97.680 E48.25822
G0 F10500 X66.615 Y97.994
G1 F900 X52.730 Y84.108 E49.07586
G0 F10500 X51.846 Y84.108
G1 F900 X66.009 Y98.272 E49.90988
G0 F10500 X65.383 Y98.529
G1 F900 X50.962 Y84.108 E50.75906
G0 F10500 X50.078 Y84.108
G1 F900 X64.726 Y98.756 E51.62161
G0 F10500 X64.032 Y98.946
G1 F900 X49.194 Y84.108 E52.49534
G0 F10500 X48.310 Y84.108
G1 F900 X63.319 Y99.117 E53.37915
G0 F10500 X62.547 Y99.229
G1 F900 X47.427 Y84.108 E54.26952
G0 F10500 X46.543 Y84.108
G1 F900 X61.738 Y99.304 E55.16430
G0 F10500 X60.893 Y99.343
G1 F900 X45.659 Y84.108 E56.06139
G0 F10500 X44.775 Y84.108
G1 F900 X60.010 Y99.343 E56.95850
G0 F10500 X70.662 Y94.970
G1 F900 X54.969 Y79.276 E57.88261
G0 F10500 X54.969 Y78.392
G1 F900 X71.149 Y94.572 E58.83537
G0 F10500 X71.653 Y94.192
G1 F900 X40.998 Y63.537 E60.64049
G0 F10500 X41.881 Y63.537
G1 F900 X72.157 Y93.813 E62.42329
G0 F10500 X72.691 Y93.463
G1 F900 X63.887 Y84.659 E62.94171
G0 F10500 X63.142 Y83.914
G1 F900 X42.765 Y63.537 E64.14161
G0 F10500 X43.649 Y63.537
G1 F900 X62.084 Y81.972 E65.22715
G0 F10500 X61.930 Y80.934
G1 F900 X44.533 Y63.537 E66.25158
G0 F10500 X45.417 Y63.537
G1 F900 X61.931 Y80.052 E67.22403
G0 F10500 X62.904 Y83.065
G0 X64.800 Y84.929
G0 X65.795 Y85.683
G1 F900 X73.230 Y93.118 E67.66184
G0 F10500 X73.781 Y92.785
G1 F900 X66.849 Y85.853 E68.07003
G0 F10500 X67.740 Y85.861
G1 F900 X74.355 Y92.475 E68.45953
G0 F10500 X74.929 Y92.165
G1 F900 X68.510 Y85.747 E68.83748
G0 F10500 X69.179 Y85.532
G1 F900 X75.537 Y91.889 E69.21184
G0 F10500 X76.149 Y91.618
G1 F900 X69.797 Y85.266 E69.58588
G0 F10500 X70.343 Y84.928
G1 F900 X76.777 Y91.362 E69.96474
G0 F10500 X77.430 Y91.131
G1 F900 X70.838 Y84.539 E70.35291
G0 F10500 X71.290 Y84.107
G1 F900 X78.084 Y90.901 E70.75298
G0 F10500 X78.780 Y90.713
G1 F900 X71.671 Y83.604 E71.17159
G0 F10500 X72.032 Y83.082
G1 F900 X79.475 Y90.525 E71.60987
G0 F10500 X80.206 Y90.371
G1 F900 X72.289 Y82.455 E72.07603
G0 F10500 X72.532 Y81.813
G1 F900 X80.948 Y90.229 E72.57161
G0 F10500 X81.721 Y90.119
G1 F900 X72.634 Y81.031 E73.10673
G0 F10500 X72.661 Y80.175
G1 F900 X82.515 Y90.028 E73.68695
G0 F10500 X83.345 Y89.975
G1 F900 X72.528 Y79.158 E74.32391
G0 F10500 X71.752 Y77.498
G1 F900 X84.196 Y89.942 E75.05667
G0 F10500 X85.072 Y89.934
G1 F900 X58.675 Y63.537 E76.61106
G0 F10500 X57.791 Y63.537
G1 F900 X70.253 Y75.999 E77.34488
G0 F10500 X68.640 Y75.270
G1 F900 X56.907 Y63.537 E78.03578
G0 F10500 X56.024 Y63.537
G1 F900 X67.602 Y75.116 E78.71758
G0 F10500 X66.757 Y75.155
G1 F900 X55.140 Y63.537 E79.40168
G0 F10500 X54.256 Y63.537
G1 F900 X65.965 Y75.247 E80.09119
G0 F10500 X65.333 Y75.498
G1 F900 X53.372 Y63.537 E80.79551
G0 F10500 X52.488 Y63.537
G1 F900 X64.700 Y75.750 E81.51464
G0 F10500 X64.183 Y76.116
G1 F900 X51.604 Y63.537 E82.25536
G0 F10500 X50.720 Y63.537
G1 F900 X63.678 Y76.495 E83.01839
G0 F10500 X63.247 Y76.948
G1 F900 X49.836 Y63.537 E83.80810
G0 F10500 X48.953 Y63.537
G1 F900 X62.860 Y77.445 E84.62704
G0 F10500 X62.519 Y77.988
G1 F900 X48.069 Y63.537 E85.47795
G0 F10500 X47.185 Y63.537
G1 F900 X62.258 Y78.611 E86.36556
G0 F10500 X62.035 Y79.271
G1 F900 X46.301 Y63.537 E87.29205
G0 F10500 X40.114 Y63.537
G1 F900 X54.771 Y78.195 E88.15516
G0 F10500 X53.887 Y78.195
G1 F900 X39.230 Y63.537 E89.01827
G0 F10500 X38.346 Y63.537
G1 F900 X53.004 Y78.195 E89.88140
G0 F10500 X52.120 Y78.195
G1 F900 X37.462 Y63.537 E90.74454
G0 F10500 X36.578 Y63.537
G1 F900 X51.236 Y78.195 E91.60767
G0 F10500 X50.352 Y78.195
G1 F900 X35.694 Y63.537 E92.47081
G0 F10500 X34.810 Y63.537
G1 F900 X49.468 Y78.195 E93.33394
G0 F10500 X48.584 Y78.195
G1 F900 X33.926 Y63.537 E94.19708
G0 F10500 X33.043 Y63.537
G1 F900 X47.700 Y78.195 E95.06019
G0 F10500 X46.816 Y78.194
G1 F900 X32.159 Y63.537 E95.92326
G0 F10500 X31.275 Y63.537
G1 F900 X45.932 Y78.194 E96.78634
G0 F10500 X45.048 Y78.194
G1 F900 X30.391 Y63.537 E97.64942
G0 F10500 X29.718 Y63.749
G1 F900 X44.164 Y78.194 E98.50004
G0 F10500 X43.280 Y78.194
G1 F900 X29.718 Y64.633 E99.29861
G0 F10500 X29.718 Y65.516
G1 F900 X42.396 Y78.194 E100.04515
G0 F10500 X41.512 Y78.194
G1 F900 X29.718 Y66.400 E100.73964
G0 F10500 X29.718 Y67.284
G1 F900 X40.628 Y78.194 E101.38207
G0 F10500 X59.559 Y63.537
G1 F900 X85.955 Y89.934 E102.93643
G0 F10500 X86.839 Y89.934
G1 F900 X60.443 Y63.537 E104.49079
G0 F10500 X61.327 Y63.537
G1 F900 X87.723 Y89.934 E106.04514
G0 F10500 X88.607 Y89.934
G1 F900 X62.211 Y63.537 E107.59950
G0 F10500 X63.095 Y63.537
G1 F900 X89.491 Y89.934 E109.15386
G0 F10500 X90.375 Y89.934
G1 F900 X63.979 Y63.537 E110.70821
G0 F10500 X64.862 Y63.537
G1 F900 X91.259 Y89.934 E112.26260
G0 F10500 X92.143 Y89.934
G1 F900 X65.746 Y63.537 E113.81699
G0 F10500 X66.630 Y63.537
G1 F900 X93.026 Y89.934 E115.37134
G0 F10500 X93.910 Y89.934
G1 F900 X67.514 Y63.537 E116.92570
G0 F10500 X68.398 Y63.537
G1 F900 X94.794 Y89.934 E118.48006
G0 F10500 X95.678 Y89.934
G1 F900 X69.282 Y63.537 E120.03441
G0 F10500 X70.166 Y63.537
G1 F900 X96.562 Y89.934 E121.58877
G0 F10500 X97.446 Y89.934
G1 F900 X71.050 Y63.537 E123.14313
G0 F10500 X71.933 Y63.537
G1 F900 X98.330 Y89.934 E124.69751
G0 F10500 X99.214 Y89.934
G1 F900 X72.817 Y63.537 E126.25190
G0 F10500 X73.701 Y63.537
G1 F900 X100.098 Y89.934 E127.80629
G0 F10500 X100.982 Y89.934
G1 F900 X74.585 Y63.537 E129.36067
G0 F10500 X75.469 Y63.537
G1 F900 X101.866 Y89.934 E130.91506
G0 F10500 X102.750 Y89.934
G1 F900 X76.353 Y63.537 E132.46944
G0 F10500 X77.237 Y63.537
G1 F900 X103.634 Y89.934 E134.02383
G0 F10500 X104.518 Y89.934
G1 F900 X78.121 Y63.537 E135.57822
G0 F10500 X79.005 Y63.537
G1 F900 X105.402 Y89.934 E137.13260
G0 F10500 X106.285 Y89.934
G1 F900 X79.888 Y63.537 E138.68699
G0 F10500 X80.772 Y63.537
G1 F900 X107.169 Y89.934 E140.24137
G0 F10500 X108.053 Y89.934
G1 F900 X81.656 Y63.537 E141.79576
G0 F10500 X82.540 Y63.537
G1 F900 X108.937 Y89.934 E143.35015
G0 F10500 X109.821 Y89.934
G1 F900 X105.356 Y85.470 E143.61304
G0 F10500 X106.592 Y85.822
G1 F900 X110.705 Y89.934 E143.85520
G0 F10500 X111.589 Y89.934
G1 F900 X107.545 Y85.890 E144.09333
G0 F10500 X108.340 Y85.801
G1 F900 X112.473 Y89.934 E144.33671
G0 F10500 X113.356 Y89.934
G1 F900 X109.071 Y85.649 E144.58903
G0 F10500 X109.687 Y85.381
G1 F900 X114.185 Y89.878 E144.85386
G0 F10500 X114.852 Y89.662
G1 F900 X110.283 Y85.093 E145.12291
G0 F10500 X110.779 Y84.705
G1 F900 X115.520 Y89.446 E145.40208
G0 F10500 X116.187 Y89.229
G1 F900 X111.263 Y84.305 E145.69203
G0 F10500 X111.662 Y83.821
G1 F900 X116.855 Y89.013 E145.99779
G0 F10500 X117.522 Y88.797
G1 F900 X112.034 Y83.309 E146.32095
G0 F10500 X112.333 Y82.724
G1 F900 X118.190 Y88.580 E146.66581
G0 F10500 X118.857 Y88.364
G1 F900 X112.584 Y82.091 E147.03520
G0 F10500 X112.742 Y81.365
G1 F900 X119.525 Y88.147 E147.43458
G0 F10500 X120.191 Y87.930
G1 F900 X112.842 Y80.581 E147.86733
G0 F10500 X111.808 Y83.059
G0 X110.046 Y84.847
G0 X107.545 Y85.561
G0 X105.248 Y85.083
G0 X103.329 Y83.486
G0 X102.427 Y82.541
G1 F900 X83.424 Y63.537 E148.98635
G0 F10500 X84.308 Y63.537
G1 F900 X102.104 Y81.334 E150.03430
G0 F10500 X102.064 Y80.410
G1 F900 X85.192 Y63.537 E151.02783
G0 F10500 X86.076 Y63.537
G1 F900 X102.124 Y79.586 E151.97285
G0 F10500 X102.304 Y78.882
G1 F900 X86.959 Y63.537 E152.87644
G0 F10500 X87.843 Y63.537
G1 F900 X102.547 Y78.241 E153.74228
G0 F10500 X102.860 Y77.670
G1 F900 X88.727 Y63.537 E154.57450
G0 F10500 X89.611 Y63.537
G1 F900 X103.217 Y77.143 E155.37569
G0 F10500 X103.646 Y76.688
G1 F900 X90.495 Y63.537 E156.15009
G0 F10500 X91.379 Y63.537
G1 F900 X104.097 Y76.255 E156.89899
G0 F10500 X104.638 Y75.912
G1 F900 X92.263 Y63.537 E157.62769
G0 F10500 X93.147 Y63.537
G1 F900 X105.189 Y75.580 E158.33681
G0 F10500 X105.857 Y75.364
G1 F900 X94.031 Y63.537 E159.03321
G0 F10500 X94.914 Y63.537
G1 F900 X106.550 Y75.173 E159.71840
G0 F10500 X107.381 Y75.120
G1 F900 X95.798 Y63.537 E160.40046
G0 F10500 X96.682 Y63.537
G1 F900 X108.350 Y75.205 E161.08753
G0 F10500 X109.619 Y75.590
G1 F900 X97.566 Y63.537 E161.79727
G0 F10500 X98.450 Y63.537
G1 F900 X122.194 Y87.281 E163.19544
G0 F10500 X122.861 Y87.065
G1 F900 X99.334 Y63.537 E164.58085
G0 F10500 X100.218 Y63.537
G1 F900 X123.529 Y86.848 E165.95352
G0 F10500 X124.196 Y86.632
G1 F900 X101.102 Y63.537 E167.31344
G0 F10500 X101.986 Y63.537
G1 F900 X124.864 Y86.416 E168.66064
G0 F10500 X125.531 Y86.199
G1 F900 X102.869 Y63.537 E169.99509
G0 F10500 X103.753 Y63.537
G1 F900 X126.199 Y85.983 E171.31682
G0 F10500 X126.866 Y85.767
G1 F900 X104.637 Y63.537 E172.62580
G0 F10500 X105.521 Y63.537
G1 F900 X127.534 Y85.550 E173.92204
G0 F10500 X128.201 Y85.334
G1 F900 X106.405 Y63.537 E175.20552
G0 F10500 X107.289 Y63.537
G1 F900 X128.868 Y85.117 E176.47623
G0 F10500 X129.536 Y84.900
G1 F900 X108.173 Y63.537 E177.73419
G0 F10500 X109.057 Y63.537
G1 F900 X130.203 Y84.684 E178.97940
G0 F10500 X130.280 Y83.877
G1 F900 X109.940 Y63.537 E180.17712
G0 F10500 X110.824 Y63.537
G1 F900 X130.280 Y82.993 E181.32279
G0 F10500 X130.280 Y82.109
G1 F900 X111.708 Y63.537 E182.41640
G0 F10500 X112.592 Y63.537
G1 F900 X130.280 Y81.225 E183.45796
G0 F10500 X130.280 Y80.341
G1 F900 X113.476 Y63.537 E184.44746
G0 F10500 X114.360 Y63.537
G1 F900 X130.280 Y79.457 E185.38491
G0 F10500 X130.280 Y78.573
G1 F900 X115.244 Y63.537 E186.27030
G0 F10500 X116.128 Y63.537
G1 F900 X130.280 Y77.689 E187.10364
G0 F10500 X130.280 Y76.805
G1 F900 X117.012 Y63.537 E187.88493
G0 F10500 X117.895 Y63.537
G1 F900 X130.280 Y75.922 E188.61422
G0 F10500 X130.280 Y75.038
G1 F900 X118.779 Y63.537 E189.29145
G0 F10500 X119.663 Y63.537
G1 F900 X130.280 Y74.154 E189.91663
G0 F10500 X130.280 Y73.270
G1 F900 X120.547 Y63.537 E190.48976
G0 F10500 X121.431 Y63.537
G1 F900 X130.280 Y72.386 E191.01083
G0 F10500 X130.280 Y71.502
G1 F900 X122.315 Y63.537 E191.47985
G0 F10500 X123.199 Y63.537
G1 F900 X130.280 Y70.618 E191.89682
G0 F10500 X130.280 Y69.734
G1 F900 X124.083 Y63.537 E192.26173
G0 F10500 X124.966 Y63.537
G1 F900 X130.280 Y68.850 E192.57461
G0 F10500 X130.280 Y67.967
G1 F900 X125.850 Y63.537 E192.83547
G0 F10500 X126.734 Y63.537
G1 F900 X130.280 Y67.083 E193.04428
G0 F10500 X130.280 Y66.199
G1 F900 X127.618 Y63.537 E193.20103
G0 F10500 X128.502 Y63.537
G1 F900 X130.280 Y65.315 E193.30573
G0 F10500 X130.280 Y64.431
G1 F900 X129.386 Y63.537 E193.35837
G0 F10500 X112.352 Y78.324
G1 F900 X121.526 Y87.498 E193.89858
G0 F10500 X120.859 Y87.714
G1 F900 X112.736 Y79.591 E194.37690
G0 F10500 X111.808 Y83.059
G0 X110.046 Y84.847
G0 X107.545 Y85.561
G0 X105.248 Y85.083
G0 X103.329 Y83.486
G0 X76.647 Y91.762
G0 X72.412 Y94.037
G0 X59.126 Y99.343
G1 F900 X43.891 Y84.108 E195.27402
G0 F10500 X43.007 Y84.108
G1 F900 X58.242 Y99.343 E196.17113
G0 F10500 X57.358 Y99.343
G1 F900 X42.123 Y84.108 E197.06824
G0 F10500 X41.239 Y84.108
G1 F900 X56.474 Y99.343 E197.96535
G0 F10500 X55.590 Y99.343
G1 F900 X40.355 Y84.108 E198.86247
G0 F10500 X39.472 Y84.108
G1 F900 X54.706 Y99.343 E199.75955
G0 F10500 X53.822 Y99.343
G1 F900 X29.718 Y75.239 E201.17891
G0 F10500 X29.718 Y76.123
G1 F900 X52.938 Y99.343 E202.54622
G0 F10500 X52.055 Y99.343
G1 F900 X29.718 Y77.007 E203.86150
G0 F10500 X29.718 Y77.891
G1 F900 X51.171 Y99.343 E205.12473
G0 F10500 X50.287 Y99.343
G1 F900 X29.718 Y78.775 E206.33591
G0 F10500 X29.718 Y79.659
G1 F900 X49.403 Y99.343 E207.49503
G0 F10500 X48.519 Y99.343
G1 F900 X29.718 Y80.542 E208.60213
G0 F10500 X29.718 Y81.426
G1 F900 X47.635 Y99.343 E209.65717
G0 F10500 X46.751 Y99.343
G1 F900 X29.718 Y82.310 E210.66015
G0 F10500 X29.718 Y83.194
G1 F900 X45.867 Y99.343 E211.61109
G0 F10500 X44.984 Y99.343
G1 F900 X29.718 Y84.078 E212.51000
G0 F10500 X29.718 Y84.962
G1 F900 X44.100 Y99.343 E213.35685
G0 F10500 X43.216 Y99.343
G1 F900 X29.718 Y85.846 E214.15165
G0 F10500 X29.718 Y86.730
G1 F900 X42.332 Y99.343 E214.89440
G0 F10500 X41.448 Y99.343
G1 F900 X29.718 Y87.614 E215.58509
G0 F10500 X29.718 Y88.497
G1 F900 X40.564 Y99.343 E216.22375
G0 F10500 X39.680 Y99.343
G1 F900 X29.718 Y89.381 E216.81036
G0 F10500 X29.718 Y90.265
G1 F900 X38.796 Y99.343 E217.34492
G0 F10500 X37.912 Y99.343
G1 F900 X29.718 Y91.149 E217.82743
G0 F10500 X29.718 Y92.033
G1 F900 X37.029 Y99.343 E218.25790
G0 F10500 X36.145 Y99.343
G1 F900 X29.718 Y92.917 E218.63633
G0 F10500 X29.718 Y93.801
G1 F900 X35.261 Y99.343 E218.96270
G0 F10500 X34.342 Y99.308
G1 F900 X29.750 Y94.716 E219.23310
G0 F10500 X29.985 Y95.835
G1 F900 X33.226 Y99.076 E219.42394
G0 F10500 X38.781 Y83.418
G1 F900 X29.718 Y74.355 E219.95762
G0 F10500 X29.718 Y73.471
G1 F900 X38.781 Y82.534 E220.49129
G0 F10500 X38.781 Y81.651
G1 F900 X29.718 Y72.588 E221.02497
G0 F10500 X29.718 Y71.704
G1 F900 X38.781 Y80.767 E221.55864
G0 F10500 X38.781 Y79.883
G1 F900 X29.718 Y70.820 E222.09232
G0 F10500 X29.718 Y69.936
G1 F900 X38.781 Y78.999 E222.62599
G0 F10500 X38.861 Y78.194
G1 F900 X29.718 Y69.052 E223.16435
G0 F10500 X29.718 Y68.168
G1 F900 X39.745 Y78.194 E223.75476
;LAYER:1
M106 S191
G0 F10500 X39.188 Y77.421 Z0.675
;TYPE:WALL-INNER
G1 F1140 X39.188 Y84.885 E223.90101
G1 X54.563 Y84.886 E224.20227
G1 X54.563 Y77.422 E224.34852
G1 X39.188 Y77.421 E224.64979
G0 F10500 X29.313 Y62.922
G1 F1140 X130.687 Y62.922 E226.63614
G1 X130.687 Y84.955 E227.06786
G1 X114.078 Y90.341 E227.40999
G1 X84.426 Y90.341 E227.99100
G1 X82.951 Y90.397 E228.01992
G1 X82.838 Y90.402 E228.02214
G1 X81.338 Y90.574 E228.05172
G1 X79.768 Y90.870 E228.08303
G1 X78.223 Y91.285 E228.11437
G1 X76.737 Y91.809 E228.14525
G1 X75.248 Y92.464 E228.17712
G1 X73.838 Y93.217 E228.20844
G1 X72.489 Y94.078 E228.23980
G1 X71.209 Y95.037 E228.27114
G1 X70.027 Y96.074 E228.30195
G1 X69.005 Y96.963 E228.32849
G1 X67.992 Y97.684 E228.35286
G1 X66.929 Y98.299 E228.37692
G1 X65.802 Y98.814 E228.40120
G1 X64.625 Y99.222 E228.42561
G1 X63.420 Y99.515 E228.44991
G1 X62.202 Y99.690 E228.47402
G1 X60.948 Y99.750 E228.49862
G1 X34.833 Y99.750 E229.01032
G1 X34.100 Y99.702 E229.02472
G1 X33.385 Y99.560 E229.03900
G1 X32.707 Y99.329 E229.05303
G1 X32.067 Y99.013 E229.06702
G1 X31.468 Y98.614 E229.08112
G1 X30.922 Y98.134 E229.09537
G1 X30.453 Y97.599 E229.10931
G1 X30.050 Y96.997 E229.12350
G1 X29.733 Y96.352 E229.13759
G1 X29.504 Y95.678 E229.15153
G1 X29.360 Y94.960 E229.16588
G1 X29.313 Y94.232 E229.18018
G1 X29.313 Y62.922 E229.79368
G0 F10500 X62.967 Y77.971
G1 F1140 X62.456 Y79.189 E229.81956
G1 X62.281 Y80.500 E229.84547
G1 X62.456 Y81.810 E229.87137
G1 X62.967 Y83.028 E229.89725
G1 X63.779 Y84.071 E229.92315
G1 X64.836 Y84.865 E229.94905
G1 X66.064 Y85.354 E229.97495
G1 X67.375 Y85.505 E230.00081
G1 X68.654 Y85.316 E230.02614
G1 X69.842 Y84.806 E230.05148
G1 X70.860 Y84.008 E230.07682
G1 X71.638 Y82.977 E230.10213
G1 X72.127 Y81.781 E230.12745
G1 X72.294 Y80.500 E230.15276
G1 X72.127 Y79.218 E230.17809
G1 X71.638 Y78.022 E230.20341
G1 X70.859 Y76.992 E230.22872
G1 X69.842 Y76.194 E230.25405
G1 X68.654 Y75.684 E230.27938
G1 X67.375 Y75.495 E230.30471
G1 X66.064 Y75.646 E230.33057
G1 X64.836 Y76.135 E230.35647
G1 X63.779 Y76.929 E230.38237
G1 X62.967 Y77.971 E230.40826
G0 F10500 X64.862 Y76.181
G0 X67.374 Y75.547
G0 X69.814 Y76.239
G0 X71.592 Y78.048
G0 X102.471 Y79.870
G1 F1140 X102.471 Y81.126 E230.43287
G1 X102.744 Y82.195 E230.45449
G1 X102.783 Y82.344 E230.45750
G1 X103.314 Y83.309 E230.47909
G1 X103.389 Y83.444 E230.48211
G1 X104.142 Y84.246 E230.50367
G1 X104.247 Y84.357 E230.50666
G1 X105.264 Y85.008 E230.53032
G1 X106.366 Y85.381 E230.55312
G1 X106.645 Y85.434 E230.55868
G1 X107.472 Y85.486 E230.57492
G1 X107.637 Y85.494 E230.57816
G1 X107.909 Y85.475 E230.58350
G1 X108.764 Y85.311 E230.60056
G1 X109.110 Y85.208 E230.60763
G1 X109.969 Y84.804 E230.62623
G1 X110.120 Y84.722 E230.62960
G1 X110.887 Y84.088 E230.64910
G1 X111.083 Y83.931 E230.65402
G1 X111.732 Y83.037 E230.67566
G1 X111.823 Y82.912 E230.67869
G1 X112.227 Y81.890 E230.70023
G1 X112.285 Y81.745 E230.70329
G1 X112.422 Y80.660 E230.72472
G1 X112.443 Y80.503 E230.72782
G1 X112.305 Y79.405 E230.74950
G1 X112.284 Y79.252 E230.75253
G1 X111.880 Y78.230 E230.77406
G1 X111.823 Y78.087 E230.77708
G1 X111.176 Y77.198 E230.79862
G1 X111.086 Y77.073 E230.80164
G1 X110.119 Y76.274 E230.82622
G1 X109.121 Y75.804 E230.84783
G1 X108.981 Y75.740 E230.85085
G1 X107.902 Y75.533 E230.87238
G1 X107.751 Y75.505 E230.87539
G1 X106.651 Y75.574 E230.89698
G1 X106.498 Y75.584 E230.89999
G1 X105.447 Y75.924 E230.92163
G1 X105.301 Y75.974 E230.92466
G1 X104.375 Y76.562 E230.94615
G1 X104.245 Y76.644 E230.94916
G1 X103.497 Y77.440 E230.97056
G1 X103.389 Y77.554 E230.97364
G1 X102.859 Y78.518 E230.99520
G1 X102.782 Y78.655 E230.99828
G1 X102.509 Y79.724 E231.01990
G1 X102.471 Y79.870 E231.02285
G0 F10500 X102.994 Y79.846
;TYPE:WALL-OUTER
G1 F1080 X102.971 Y79.935 E231.02465
G1 X102.971 Y81.063 E231.04675
G1 X103.228 Y82.070 E231.06712
G1 X103.251 Y82.157 E231.06888
G1 X103.751 Y83.067 E231.08923
G1 X103.796 Y83.147 E231.09103
G1 X104.505 Y83.903 E231.11133
G1 X104.568 Y83.968 E231.11311
G1 X105.482 Y84.554 E231.13438
G1 X106.493 Y84.896 E231.15529
G1 X106.707 Y84.937 E231.15956
G1 X107.501 Y84.987 E231.17515
G1 X107.632 Y84.993 E231.17772
G1 X107.844 Y84.978 E231.18189
G1 X108.645 Y84.825 E231.19787
G1 X108.931 Y84.739 E231.20372
G1 X109.743 Y84.358 E231.22129
G1 X109.839 Y84.306 E231.22343
G1 X110.568 Y83.703 E231.24197
G1 X110.718 Y83.583 E231.24573
G1 X111.382 Y82.668 E231.26789
G1 X111.763 Y81.704 E231.28820
G1 X111.797 Y81.619 E231.28999
G1 X111.927 Y80.593 E231.31025
G1 X111.939 Y80.501 E231.31207
G1 X111.809 Y79.470 E231.33243
G1 X111.797 Y79.379 E231.33423
G1 X111.415 Y78.415 E231.35455
G1 X111.382 Y78.330 E231.35634
G1 X110.719 Y77.418 E231.37843
G1 X109.849 Y76.699 E231.40055
G1 X108.910 Y76.257 E231.42088
G1 X108.827 Y76.219 E231.42267
G1 X107.720 Y76.008 E231.44475
G1 X106.684 Y76.073 E231.46509
G1 X106.593 Y76.079 E231.46688
G1 X105.604 Y76.399 E231.48725
G1 X105.518 Y76.428 E231.48902
G1 X104.567 Y77.032 E231.51110
G1 X103.859 Y77.785 E231.53135
G1 X103.796 Y77.852 E231.53315
G1 X103.296 Y78.761 E231.55348
G1 X103.251 Y78.842 E231.55530
G1 X102.994 Y79.846 E231.57560
G0 F10500 X102.762 Y79.683
G0 X102.523 Y79.877
G0 X102.832 Y82.324
G0 X104.281 Y84.317
G0 X106.652 Y85.383
G0 X114.105 Y90.491
G0 X114.155 Y90.841
G1 F1080 X84.435 Y90.841 E232.15795
G1 X82.972 Y90.896 E232.18663
G1 X82.878 Y90.901 E232.18848
G1 X81.413 Y91.069 E232.21737
G1 X79.879 Y91.358 E232.24796
G1 X78.371 Y91.763 E232.27855
G1 X76.905 Y92.280 E232.30901
G1 X75.468 Y92.913 E232.33978
G1 X74.091 Y93.649 E232.37037
G1 X72.774 Y94.489 E232.40098
G1 X71.524 Y95.426 E232.43159
G1 X70.358 Y96.449 E232.46199
G1 X69.314 Y97.356 E232.48908
G1 X68.260 Y98.107 E232.51444
G1 X67.156 Y98.745 E232.53943
G1 X65.985 Y99.280 E232.56465
G1 X64.772 Y99.701 E232.58981
G1 X63.515 Y100.006 E232.61516
G1 X62.254 Y100.187 E232.64012
G1 X60.951 Y100.250 E232.66568
G1 X34.815 Y100.250 E233.17780
G1 X34.032 Y100.198 E233.19317
G1 X33.262 Y100.046 E233.20855
G1 X32.516 Y99.792 E233.22399
G1 X31.815 Y99.446 E233.23931
G1 X31.160 Y99.009 E233.25474
G1 X30.571 Y98.492 E233.27010
G1 X30.054 Y97.901 E233.28548
G1 X29.615 Y97.246 E233.30093
G1 X29.272 Y96.549 E233.31615
G1 X29.017 Y95.800 E233.33166
G1 X28.864 Y95.030 E233.34704
G1 X28.813 Y94.250 E233.36236
G1 X28.813 Y62.422 E233.98601
G1 X131.187 Y62.422 E235.99196
G1 X131.187 Y85.318 E236.44059
G1 X114.155 Y90.841 E236.79143
G0 F10500 X114.105 Y90.491
G0 X71.962 Y81.784
G0 X71.640 Y81.652
G1 F1080 X71.790 Y80.500 E236.81419
G1 X71.640 Y79.347 E236.83697
G1 X71.200 Y78.271 E236.85975
G1 X70.500 Y77.345 E236.88249
G1 X69.585 Y76.628 E236.90527
G1 X68.517 Y76.169 E236.92805
G1 X67.367 Y75.999 E236.95083
G1 X66.187 Y76.135 E236.97410
G1 X65.083 Y76.575 E236.99739
G1 X64.132 Y77.289 E237.02069
G1 X63.402 Y78.226 E237.04397
G1 X62.943 Y79.321 E237.06723
G1 X62.786 Y80.500 E237.09054
G1 X62.943 Y81.678 E237.11382
G1 X63.402 Y82.773 E237.13709
G1 X64.132 Y83.711 E237.16038
G1 X65.083 Y84.425 E237.18368
G1 X66.187 Y84.865 E237.20696
G1 X67.367 Y85.001 E237.23024
G1 X68.517 Y84.831 E237.25302
G1 X69.585 Y84.372 E237.27579
G1 X70.500 Y83.655 E237.29857
G1 X71.200 Y82.728 E237.32133
G1 X71.640 Y81.652 E237.34411
G0 F10500 X71.962 Y81.784
G0 X71.592 Y82.950
G0 X69.814 Y84.761
G0 X67.374 Y85.453
G0 X64.862 Y84.819
G0 X54.062 Y84.735
G0 X54.063 Y84.386
G1 F1080 X54.063 Y77.922 E237.47077
G1 X39.688 Y77.921 E237.75244
G1 X39.688 Y84.385 E237.87910
G1 X54.063 Y84.386 E238.16076
G0 F10500 X53.887 Y85.059
;TYPE:SKIN
G1 F1380 X39.371 Y99.574 E238.56300
G0 F10500 X38.664 Y99.574
G1 F1380 X53.180 Y85.059 E238.96523
G0 F10500 X52.472 Y85.059
G1 F1380 X37.957 Y99.574 E239.36745
G0 F10500 X37.250 Y99.574
G1 F1380 X51.765 Y85.059 E239.76967
G0 F10500 X51.058 Y85.059
G1 F1380 X36.543 Y99.574 E240.17189
G0 F10500 X35.836 Y99.574
G1 F1380 X50.351 Y85.059 E240.57410
G0 F10500 X49.644 Y85.059
G1 F1380 X35.129 Y99.574 E240.97632
G0 F10500 X34.446 Y99.550
G1 F1380 X48.937 Y85.059 E241.37788
G0 F10500 X48.230 Y85.059
G1 F1380 X33.821 Y99.468 E241.77716
G0 F10500 X33.253 Y99.329
G1 F1380 X47.523 Y85.059 E242.17259
G0 F10500 X46.816 Y85.059
G1 F1380 X32.730 Y99.144 E242.56291
G0 F10500 X32.256 Y98.911
G1 F1380 X46.109 Y85.059 E242.94677
G0 F10500 X45.401 Y85.059
G1 F1380 X31.821 Y98.639 E243.32308
G0 F10500 X31.416 Y98.337
G1 F1380 X44.694 Y85.059 E243.69102
G0 F10500 X43.987 Y85.059
G1 F1380 X31.042 Y98.004 E244.04973
G0 F10500 X30.711 Y97.628
G1 F1380 X43.280 Y85.059 E244.39802
G0 F10500 X42.573 Y85.059
G1 F1380 X30.411 Y97.221 E244.73504
G0 F10500 X30.141 Y96.784
G1 F1380 X41.866 Y85.059 E245.05995
G0 F10500 X41.159 Y85.059
G1 F1380 X29.908 Y96.310 E245.37172
G0 F10500 X29.725 Y95.786
G1 F1380 X40.452 Y85.059 E245.66897
G0 F10500 X54.594 Y85.059
G1 F1380 X40.078 Y99.574 E246.07120
G0 F10500 X40.785 Y99.574
G1 F1380 X77.264 Y63.096 E247.08204
G0 F10500 X77.971 Y63.096
G1 F1380 X65.310 Y75.757 E247.43289
G0 F10500 X66.336 Y75.438
G1 F1380 X78.678 Y63.096 E247.77489
G0 F10500 X79.385 Y63.096
G1 F1380 X67.134 Y75.347 E248.11437
G0 F10500 X67.807 Y75.381
G1 F1380 X80.092 Y63.096 E248.45480
G0 F10500 X80.799 Y63.096
G1 F1380 X68.424 Y75.471 E248.79771
G0 F10500 X68.974 Y75.629
G1 F1380 X81.506 Y63.096 E249.14500
G0 F10500 X82.213 Y63.096
G1 F1380 X69.468 Y75.842 E249.49818
G0 F10500 X69.956 Y76.060
G1 F1380 X82.920 Y63.096 E249.85742
G0 F10500 X83.628 Y63.096
G1 F1380 X70.352 Y76.371 E250.22529
G0 F10500 X70.749 Y76.682
G1 F1380 X84.335 Y63.096 E250.60177
G0 F10500 X85.042 Y63.096
G1 F1380 X71.108 Y77.030 E250.98789
G0 F10500 X71.413 Y77.432
G1 F1380 X85.749 Y63.096 E251.38515
G0 F10500 X86.456 Y63.096
G1 F1380 X71.718 Y77.834 E251.79354
G0 F10500 X71.948 Y78.312
G1 F1380 X87.163 Y63.096 E252.21518
G0 F10500 X87.870 Y63.096
G1 F1380 X72.153 Y78.814 E252.65072
G0 F10500 X72.322 Y79.352
G1 F1380 X88.577 Y63.096 E253.10117
G0 F10500 X89.284 Y63.096
G1 F1380 X72.403 Y79.978 E253.56896
G0 F10500 X70.822 Y77.029
G0 X68.640 Y75.735
G0 X66.078 Y75.697
G0 X63.816 Y76.967
G0 X62.545 Y78.522
G1 F1380 X41.493 Y99.574 E254.15232
G0 F10500 X42.200 Y99.574
G1 F1380 X62.232 Y79.542 E254.70742
G0 F10500 X54.737 Y79.258
G1 F1380 X70.900 Y63.096 E255.15529
G0 F10500 X71.607 Y63.096
G1 F1380 X54.737 Y79.965 E255.62276
G0 F10500 X54.737 Y78.551
G1 F1380 X70.193 Y63.096 E256.05104
G0 F10500 X69.485 Y63.096
G1 F1380 X54.737 Y77.844 E256.45971
G0 F10500 X54.628 Y77.246
G1 F1380 X68.778 Y63.096 E256.85182
G0 F10500 X68.071 Y63.096
G1 F1380 X53.921 Y77.246 E257.24392
G0 F10500 X53.214 Y77.246
G1 F1380 X67.364 Y63.096 E257.63603
G0 F10500 X66.657 Y63.096
G1 F1380 X52.507 Y77.246 E258.02813
G0 F10500 X51.800 Y77.246
G1 F1380 X65.950 Y63.096 E258.42024
G0 F10500 X65.243 Y63.096
G1 F1380 X51.093 Y77.246 E258.81234
G0 F10500 X50.386 Y77.246
G1 F1380 X64.536 Y63.096 E259.20445
G0 F10500 X63.829 Y63.096
G1 F1380 X49.679 Y77.246 E259.59655
G0 F10500 X48.972 Y77.246
G1 F1380 X63.122 Y63.096 E259.98865
G0 F10500 X62.414 Y63.096
G1 F1380 X48.264 Y77.246 E260.38076
G0 F10500 X47.557 Y77.246
G1 F1380 X61.707 Y63.096 E260.77286
G0 F10500 X61.000 Y63.096
G1 F1380 X46.851 Y77.245 E261.16494
G0 F10500 X46.144 Y77.245
G1 F1380 X60.293 Y63.096 E261.55702
G0 F10500 X72.314 Y63.096
G1 F1380 X54.737 Y80.673 E262.04409
G0 F10500 X54.737 Y81.380
G1 F1380 X73.021 Y63.096 E262.55075
G0 F10500 X73.728 Y63.096
G1 F1380 X54.737 Y82.087 E263.07700
G0 F10500 X54.737 Y82.794
G1 F1380 X74.435 Y63.096 E263.62284
G0 F10500 X75.142 Y63.096
G1 F1380 X54.737 Y83.501 E264.18827
G0 F10500 X54.737 Y84.208
G1 F1380 X75.849 Y63.096 E264.77330
G0 F10500 X76.557 Y63.096
G1 F1380 X54.737 Y84.915 E265.37793
G0 F10500 X62.421 Y82.181
G1 F1380 X45.028 Y99.574 E265.85990
G0 F10500 X45.735 Y99.574
G1 F1380 X62.630 Y82.679 E266.32807
G0 F10500 X62.851 Y83.165
G1 F1380 X46.442 Y99.574 E266.78277
G0 F10500 X47.149 Y99.574
G1 F1380 X63.160 Y83.563 E267.22645
G0 F10500 X63.470 Y83.961
G1 F1380 X47.856 Y99.574 E267.65911
G0 F10500 X48.564 Y99.574
G1 F1380 X63.819 Y84.319 E268.08183
G0 F10500 X64.222 Y84.623
G1 F1380 X49.271 Y99.574 E268.49613
G0 F10500 X49.978 Y99.574
G1 F1380 X64.627 Y84.925 E268.90206
G0 F10500 X65.101 Y85.158
G1 F1380 X50.685 Y99.574 E269.30154
G0 F10500 X51.392 Y99.574
G1 F1380 X65.607 Y85.359 E269.69544
G0 F10500 X66.137 Y85.537
G1 F1380 X52.099 Y99.574 E270.08443
G0 F10500 X52.806 Y99.574
G1 F1380 X66.771 Y85.610 E270.47140
G0 F10500 X67.412 Y85.675
G1 F1380 X53.513 Y99.574 E270.85654
G0 F10500 X54.220 Y99.574
G1 F1380 X68.242 Y85.553 E271.24509
G0 F10500 X69.254 Y85.248
G1 F1380 X54.928 Y99.574 E271.64207
G0 F10500 X55.635 Y99.574
G1 F1380 X92.113 Y63.096 E272.65290
G0 F10500 X92.820 Y63.096
G1 F1380 X56.342 Y99.574 E273.66372
G0 F10500 X57.049 Y99.574
G1 F1380 X93.527 Y63.096 E274.67455
G0 F10500 X94.234 Y63.096
G1 F1380 X57.756 Y99.574 E275.68537
G0 F10500 X58.463 Y99.574
G1 F1380 X94.941 Y63.096 E276.69620
G0 F10500 X95.648 Y63.096
G1 F1380 X59.170 Y99.574 E277.70703
G0 F10500 X59.877 Y99.574
G1 F1380 X96.356 Y63.096 E278.71787
G0 F10500 X97.063 Y63.096
G1 F1380 X60.584 Y99.574 E279.72871
G0 F10500 X61.309 Y99.557
G1 F1380 X97.770 Y63.096 E280.73906
G0 F10500 X98.477 Y63.096
G1 F1380 X62.052 Y99.521 E281.74842
G0 F10500 X62.863 Y99.417
G1 F1380 X99.184 Y63.096 E282.75489
G0 F10500 X99.891 Y63.096
G1 F1380 X63.729 Y99.258 E283.75696
G0 F10500 X64.676 Y99.018
G1 F1380 X100.598 Y63.096 E284.75238
G0 F10500 X101.305 Y63.096
G1 F1380 X65.763 Y98.639 E285.73729
G0 F10500 X67.127 Y97.981
G1 F1380 X102.012 Y63.096 E286.70397
G0 F10500 X102.719 Y63.096
G1 F1380 X69.648 Y96.167 E287.62038
G0 F10500 X72.945 Y93.577
G1 F1380 X103.427 Y63.096 E288.46504
G0 F10500 X104.134 Y63.096
G1 F1380 X74.640 Y92.589 E289.28233
G0 F10500 X75.992 Y91.945
G1 F1380 X104.841 Y63.096 E290.08175
G0 F10500 X105.548 Y63.096
G1 F1380 X77.176 Y91.468 E290.86795
G0 F10500 X78.259 Y91.093
G1 F1380 X106.255 Y63.096 E291.64375
G0 F10500 X106.962 Y63.096
G1 F1380 X79.226 Y90.832 E292.41233
G0 F10500 X72.037 Y82.465
G1 F1380 X91.406 Y63.096 E292.94906
G0 F10500 X90.699 Y63.096
G1 F1380 X72.347 Y81.448 E293.45760
G0 F10500 X72.452 Y80.635
G1 F1380 X89.992 Y63.096 E293.94363
G0 F10500 X107.669 Y63.096
G1 F1380 X80.145 Y90.620 E294.70634
G0 F10500 X81.016 Y90.456
G1 F1380 X108.376 Y63.096 E295.46450
G0 F10500 X109.083 Y63.096
G1 F1380 X81.839 Y90.341 E296.21946
G0 F10500 X82.638 Y90.249
G1 F1380 X109.791 Y63.096 E296.97188
G0 F10500 X110.498 Y63.096
G1 F1380 X83.388 Y90.206 E297.72312
G0 F10500 X84.124 Y90.177
G1 F1380 X111.205 Y63.096 E298.47355
G0 F10500 X111.912 Y63.096
G1 F1380 X84.842 Y90.166 E299.22367
G0 F10500 X85.550 Y90.166
G1 F1380 X112.619 Y63.096 E299.97378
G0 F10500 X113.326 Y63.096
G1 F1380 X86.257 Y90.166 E300.72389
G0 F10500 X86.964 Y90.166
G1 F1380 X114.033 Y63.096 E301.47401
G0 F10500 X114.740 Y63.096
G1 F1380 X87.671 Y90.166 E302.22412
G0 F10500 X88.378 Y90.166
G1 F1380 X115.447 Y63.096 E302.97423
G0 F10500 X116.155 Y63.096
G1 F1380 X89.085 Y90.166 E303.72435
G0 F10500 X89.792 Y90.166
G1 F1380 X116.862 Y63.096 E304.47448
G0 F10500 X117.569 Y63.096
G1 F1380 X104.204 Y76.460 E304.84482
G0 F10500 X103.710 Y76.955
G1 F1380 X90.499 Y90.166 E305.21090
G0 F10500 X91.206 Y90.166
G1 F1380 X102.560 Y78.812 E305.52553
G0 F10500 X102.316 Y79.763
G1 F1380 X91.913 Y90.166 E305.81380
G0 F10500 X92.621 Y90.166
G1 F1380 X102.295 Y80.492 E306.08187
G0 F10500 X102.306 Y81.187
G1 F1380 X93.328 Y90.166 E306.33067
G0 F10500 X94.035 Y90.166
G1 F1380 X102.449 Y81.751 E306.56384
G0 F10500 X102.594 Y82.314
G1 F1380 X94.742 Y90.166 E306.78142
G0 F10500 X95.449 Y90.166
G1 F1380 X102.827 Y82.788 E306.98587
G0 F10500 X103.078 Y83.244
G1 F1380 X96.156 Y90.166 E307.17768
G0 F10500 X96.863 Y90.166
G1 F1380 X103.359 Y83.669 E307.35771
G0 F10500 X103.702 Y84.034
G1 F1380 X97.570 Y90.166 E307.52763
G0 F10500 X98.277 Y90.166
G1 F1380 X104.045 Y84.398 E307.68746
G0 F10500 X104.453 Y84.697
G1 F1380 X98.985 Y90.166 E307.83900
G0 F10500 X99.692 Y90.166
G1 F1380 X104.884 Y84.973 E307.98288
G0 F10500 X105.344 Y85.220
G1 F1380 X100.399 Y90.166 E308.11993
G0 F10500 X101.106 Y90.166
G1 F1380 X105.872 Y85.399 E308.25201
G0 F10500 X106.411 Y85.567
G1 F1380 X101.813 Y90.166 E308.37944
G0 F10500 X102.520 Y90.166
G1 F1380 X107.051 Y85.634 E308.50501
G0 F10500 X107.731 Y85.661
G1 F1380 X103.227 Y90.166 E308.62983
G0 F10500 X103.934 Y90.166
G1 F1380 X108.576 Y85.523 E308.75848
G0 F10500 X109.671 Y85.136
G1 F1380 X104.641 Y90.166 E308.89786
G0 F10500 X105.349 Y90.166
G1 F1380 X130.511 Y65.003 E309.59513
G0 F10500 X130.511 Y65.710
G1 F1380 X106.056 Y90.166 E310.27280
G0 F10500 X106.763 Y90.166
G1 F1380 X130.511 Y66.417 E310.93089
G0 F10500 X130.511 Y67.124
G1 F1380 X107.470 Y90.166 E311.56938
G0 F10500 X108.177 Y90.166
G1 F1380 X130.511 Y67.832 E312.18827
G0 F10500 X130.511 Y68.539
G1 F1380 X108.884 Y90.166 E312.78756
G0 F10500 X109.591 Y90.166
G1 F1380 X130.511 Y69.246 E313.36727
G0 F10500 X130.511 Y69.953
G1 F1380 X110.298 Y90.166 E313.92738
G0 F10500 X111.005 Y90.166
G1 F1380 X130.511 Y70.660 E314.46791
G0 F10500 X130.511 Y71.367
G1 F1380 X111.712 Y90.166 E314.98884
G0 F10500 X112.420 Y90.166
G1 F1380 X130.511 Y72.074 E315.49016
G0 F10500 X130.511 Y72.781
G1 F1380 X113.127 Y90.166 E315.97190
G0 F10500 X113.834 Y90.166
G1 F1380 X130.511 Y73.488 E316.43404
G0 F10500 X130.511 Y74.196
G1 F1380 X114.776 Y89.930 E316.87005
G0 F10500 X115.823 Y89.591
G1 F1380 X130.511 Y74.903 E317.27706
G0 F10500 X130.511 Y75.610
G1 F1380 X116.869 Y89.251 E317.65508
G0 F10500 X117.916 Y88.912
G1 F1380 X130.511 Y76.317 E318.00409
G0 F10500 X130.511 Y77.024
G1 F1380 X118.962 Y88.572 E318.32411
G0 F10500 X112.084 Y82.723
G1 F1380 X130.511 Y64.296 E318.83473
G0 F10500 X130.511 Y63.589
G1 F1380 X112.477 Y81.623 E319.33446
G0 F10500 X112.580 Y80.813
G1 F1380 X130.297 Y63.096 E319.82541
G0 F10500 X129.590 Y63.096
G1 F1380 X112.570 Y80.115 E320.29703
G0 F10500 X112.490 Y79.488
G1 F1380 X128.882 Y63.096 E320.75126
G0 F10500 X128.175 Y63.096
G1 F1380 X112.344 Y78.927 E321.18995
G0 F10500 X112.142 Y78.422
G1 F1380 X127.468 Y63.096 E321.61464
G0 F10500 X126.761 Y63.096
G1 F1380 X111.925 Y77.932 E322.02575
G0 F10500 X111.628 Y77.522
G1 F1380 X126.054 Y63.096 E322.42551
G0 F10500 X125.347 Y63.096
G1 F1380 X111.330 Y77.113 E322.81393
G0 F10500 X110.978 Y76.758
G1 F1380 X124.640 Y63.096 E323.19251
G0 F10500 X123.933 Y63.096
G1 F1380 X110.590 Y76.438 E323.56224
G0 F10500 X110.201 Y76.120
G1 F1380 X123.226 Y63.096 E323.92315
G0 F10500 X122.518 Y63.096
G1 F1380 X109.720 Y75.895 E324.27781
G0 F10500 X109.239 Y75.668
G1 F1380 X121.811 Y63.096 E324.62618
G0 F10500 X121.104 Y63.096
G1 F1380 X108.693 Y75.507 E324.97010
G0 F10500 X108.099 Y75.394
G1 F1380 X120.397 Y63.096 E325.31088
G0 F10500 X130.511 Y77.731
G1 F1380 X120.009 Y88.233 E325.60190
G0 F10500 X121.055 Y87.894
G1 F1380 X130.511 Y78.438 E325.86393
G0 F10500 X130.511 Y79.145
G1 F1380 X122.101 Y87.555 E326.09698
G0 F10500 X123.148 Y87.215
G1 F1380 X130.511 Y79.852 E326.30101
G0 F10500 X130.511 Y80.559
G1 F1380 X124.194 Y86.876 E326.47606
G0 F10500 X125.241 Y86.537
G1 F1380 X130.511 Y81.267 E326.62209
G0 F10500 X130.511 Y81.974
G1 F1380 X126.287 Y86.197 E326.73913
G0 F10500 X127.334 Y85.858
G1 F1380 X130.511 Y82.681 E326.82716
G0 F10500 X130.511 Y83.388
G1 F1380 X128.380 Y85.518 E326.88620
G0 F10500 X129.426 Y85.180
G1 F1380 X130.511 Y84.095 E326.91627
G0 F10500 X119.690 Y63.096
G1 F1380 X107.437 Y75.350 E327.25582
G0 F10500 X106.682 Y75.397
G1 F1380 X118.983 Y63.096 E327.59669
G0 F10500 X118.276 Y63.096
G1 F1380 X105.721 Y75.651 E327.94459
G0 F10500 X66.078 Y75.697
G0 X63.816 Y76.967
G0 X62.506 Y79.203
G0 X62.122 Y80.359
G1 F1380 X42.907 Y99.574 E328.47705
G0 F10500 X43.614 Y99.574
G1 F1380 X62.173 Y81.016 E328.99132
G0 F10500 X62.256 Y81.639
G1 F1380 X44.321 Y99.574 E329.48831
G0 F10500 X39.745 Y85.059
G1 F1380 X29.589 Y95.214 E329.76972
G0 F10500 X29.511 Y94.586
G1 F1380 X39.037 Y85.059 E330.03371
G0 F10500 X39.012 Y84.377
G1 F1380 X29.487 Y93.902 E330.29765
G0 F10500 X29.487 Y93.195
G1 F1380 X39.012 Y83.670 E330.56159
G0 F10500 X39.012 Y82.963
G1 F1380 X29.487 Y92.488 E330.82554
G0 F10500 X29.487 Y91.781
G1 F1380 X39.012 Y82.256 E331.08948
G0 F10500 X39.012 Y81.549
G1 F1380 X29.487 Y91.073 E331.35341
G0 F10500 X29.487 Y90.366
G1 F1380 X39.012 Y80.842 E331.61734
G0 F10500 X39.012 Y80.134
G1 F1380 X29.487 Y89.659 E331.88128
G0 F10500 X29.487 Y88.952
G1 F1380 X39.012 Y79.427 E332.14522
G0 F10500 X39.012 Y78.720
G1 F1380 X29.487 Y88.245 E332.40917
G0 F10500 X29.487 Y87.538
G1 F1380 X39.012 Y78.013 E332.67311
G0 F10500 X39.012 Y77.306
G1 F1380 X29.487 Y86.831 E332.93705
G0 F10500 X29.487 Y86.124
G1 F1380 X52.515 Y63.096 E333.57517
G0 F10500 X53.222 Y63.096
G1 F1380 X39.073 Y77.245 E333.96725
G0 F10500 X39.780 Y77.245
G1 F1380 X53.929 Y63.096 E334.35933
G0 F10500 X54.636 Y63.096
G1 F1380 X40.487 Y77.245 E334.75140
G0 F10500 X41.194 Y77.245
G1 F1380 X55.343 Y63.096 E335.14348
G0 F10500 X56.050 Y63.096
G1 F1380 X41.901 Y77.245 E335.53556
G0 F10500 X42.608 Y77.245
G1 F1380 X56.758 Y63.096 E335.92765
G0 F10500 X57.465 Y63.096
G1 F1380 X43.315 Y77.245 E336.31974
G0 F10500 X44.023 Y77.245
G1 F1380 X58.172 Y63.096 E336.71181
G0 F10500 X58.879 Y63.096
G1 F1380 X44.730 Y77.245 E337.10389
G0 F10500 X45.437 Y77.245
G1 F1380 X59.586 Y63.096 E337.49597
G0 F10500 X51.808 Y63.096
G1 F1380 X29.487 Y85.417 E338.11450
G0 F10500 X29.487 Y84.709
G1 F1380 X51.101 Y63.096 E338.71342
G0 F10500 X50.394 Y63.096
G1 F1380 X29.487 Y84.002 E339.29275
G0 F10500 X29.487 Y83.295
G1 F1380 X49.686 Y63.096 E339.85248
G0 F10500 X48.979 Y63.096
G1 F1380 X29.487 Y82.588 E340.39261
G0 F10500 X29.487 Y81.881
G1 F1380 X48.272 Y63.096 E340.91315
G0 F10500 X47.565 Y63.096
G1 F1380 X29.487 Y81.174 E341.41410
G0 F10500 X29.487 Y80.467
G1 F1380 X46.858 Y63.096 E341.89546
G0 F10500 X46.151 Y63.096
G1 F1380 X29.487 Y79.760 E342.35723
G0 F10500 X29.487 Y79.053
G1 F1380 X45.444 Y63.096 E342.79941
G0 F10500 X44.737 Y63.096
G1 F1380 X29.487 Y78.346 E343.22200
G0 F10500 X29.487 Y77.638
G1 F1380 X44.030 Y63.096 E343.62498
G0 F10500 X43.323 Y63.096
G1 F1380 X29.487 Y76.931 E344.00837
G0 F10500 X29.487 Y76.224
G1 F1380 X42.615 Y63.096 E344.37215
G0 F10500 X41.908 Y63.096
G1 F1380 X29.487 Y75.517 E344.71634
G0 F10500 X29.487 Y74.810
G1 F1380 X41.201 Y63.096 E345.04095
G0 F10500 X40.494 Y63.096
G1 F1380 X29.487 Y74.103 E345.34596
G0 F10500 X29.487 Y73.396
G1 F1380 X39.787 Y63.096 E345.63138
G0 F10500 X39.080 Y63.096
G1 F1380 X29.487 Y72.689 E345.89720
G0 F10500 X29.487 Y71.982
G1 F1380 X38.373 Y63.096 E346.14344
G0 F10500 X37.666 Y63.096
G1 F1380 X29.487 Y71.274 E346.37007
G0 F10500 X29.487 Y70.567
G1 F1380 X36.959 Y63.096 E346.57711
G0 F10500 X36.251 Y63.096
G1 F1380 X29.487 Y69.860 E346.76454
G0 F10500 X29.487 Y69.153
G1 F1380 X35.544 Y63.096 E346.93239
G0 F10500 X34.837 Y63.096
G1 F1380 X29.487 Y68.446 E347.08064
G0 F10500 X29.487 Y67.739
G1 F1380 X34.130 Y63.096 E347.20930
G0 F10500 X33.423 Y63.096
G1 F1380 X29.487 Y67.032 E347.31837
G0 F10500 X29.487 Y66.325
G1 F1380 X32.716 Y63.096 E347.40784
G0 F10500 X32.009 Y63.096
G1 F1380 X29.487 Y65.618 E347.47773
G0 F10500 X29.487 Y64.910
G1 F1380 X31.302 Y63.096 E347.52801
G0 F10500 X30.595 Y63.096
G1 F1380 X29.487 Y64.203 E347.55870
G0 F10500 X29.487 Y63.496
G1 F1380 X29.887 Y63.096 E347.56978
;LAYER:2
G0 F10500 X29.313 Y62.712 Z0.925
;TYPE:WALL-INNER
G1 F1440 X130.687 Y62.712 E349.55614
G1 X130.687 Y84.955 E349.99198
G1 X114.078 Y90.341 E350.33410
G1 X84.426 Y90.341 E350.91511
G1 X82.993 Y90.396 E350.94321
G1 X82.840 Y90.402 E350.94621
G1 X81.376 Y90.569 E350.97509
G1 X79.807 Y90.863 E351.00636
G1 X78.262 Y91.275 E351.03770
G1 X76.775 Y91.795 E351.06856
G1 X75.284 Y92.448 E351.10046
G1 X73.873 Y93.198 E351.13177
G1 X72.522 Y94.056 E351.16313
G1 X71.262 Y94.998 E351.19395
G1 X71.138 Y95.091 E351.19699
G1 X70.059 Y96.047 E351.22524
G1 X69.005 Y96.963 E351.25260
G1 X67.992 Y97.684 E351.27696
G1 X66.929 Y98.299 E351.30103
G1 X65.802 Y98.814 E351.32530
G1 X64.625 Y99.222 E351.34971
G1 X63.420 Y99.515 E351.37401
G1 X62.202 Y99.690 E351.39812
G1 X60.948 Y99.750 E351.42272
G1 X34.833 Y99.750 E351.93443
G1 X34.100 Y99.702 E351.94882
G1 X33.385 Y99.560 E351.96311
G1 X32.707 Y99.329 E351.97714
G1 X32.067 Y99.013 E351.99113
G1 X31.468 Y98.614 E352.00523
G1 X30.922 Y98.134 E352.01947
G1 X30.453 Y97.599 E352.03341
G1 X30.050 Y96.997 E352.04761
G1 X29.733 Y96.352 E352.06169
G1 X29.504 Y95.678 E352.07564
G1 X29.360 Y94.960 E352.08999
G1 X29.313 Y94.232 E352.10428
G1 X29.313 Y62.712 E352.72190
G0 F10500 X39.188 Y76.622
G1 F1440 X39.188 Y85.685 E352.89948
G1 X54.563 Y85.686 E353.20074
G1 X54.563 Y76.623 E353.37833
G1 X39.188 Y76.622 E353.67959
G0 F10500 X54.454 Y76.732
G0 X62.456 Y79.189
G1 F1440 X62.281 Y80.500 E353.70550
G1 X62.456 Y81.810 E353.73140
G1 X62.967 Y83.028 E353.75728
G1 X63.779 Y84.071 E353.78318
G1 X64.836 Y84.865 E353.80909
G1 X66.064 Y85.354 E353.83499
G1 X67.375 Y85.505 E353.86084
G1 X68.654 Y85.316 E353.88618
G1 X69.842 Y84.806 E353.91151
G1 X70.860 Y84.008 E353.93685
G1 X71.638 Y82.977 E353.96216
G1 X72.127 Y81.781 E353.98748
G1 X72.294 Y80.500 E354.01279
G1 X72.127 Y79.218 E354.03813
G1 X71.638 Y78.022 E354.06344
G1 X70.859 Y76.992 E354.08875
G1 X69.842 Y76.194 E354.11408
G1 X68.654 Y75.684 E354.13941
G1 X67.375 Y75.495 E354.16474
G1 X66.064 Y75.646 E354.19060
G1 X64.836 Y76.135 E354.21650
G1 X63.779 Y76.929 E354.24240
G1 X62.967 Y77.971 E354.26829
G1 X62.456 Y79.189 E354.29417
G0 F10500 X63.816 Y76.967
G0 X66.078 Y75.697
G0 X68.640 Y75.735
G0 X70.822 Y77.029
G0 X102.471 Y79.869
G1 F1440 X102.471 Y81.126 E354.31880
G1 X102.737 Y82.170 E354.33991
G1 X102.784 Y82.345 E354.34346
G1 X103.301 Y83.287 E354.36452
G1 X103.390 Y83.445 E354.36807
G1 X104.244 Y84.355 E354.39252
G1 X105.246 Y84.998 E354.41585
G1 X106.326 Y85.372 E354.43825
G1 X106.690 Y85.440 E354.44550
G1 X107.385 Y85.484 E354.45915
G1 X107.604 Y85.496 E354.46344
G1 X107.959 Y85.469 E354.47042
G1 X108.679 Y85.331 E354.48478
G1 X109.088 Y85.220 E354.49309
G1 X109.929 Y84.826 E354.51129
G1 X110.112 Y84.728 E354.51535
G1 X110.820 Y84.141 E354.53337
G1 X111.082 Y83.932 E354.53994
G1 X111.713 Y83.062 E354.56100
G1 X111.822 Y82.914 E354.56460
G1 X112.219 Y81.912 E354.58572
G1 X112.285 Y81.745 E354.58924
G1 X112.420 Y80.681 E354.61025
G1 X112.443 Y80.501 E354.61381
G1 X112.308 Y79.433 E354.63490
G1 X112.285 Y79.254 E354.63844
G1 X111.890 Y78.255 E354.65949
G1 X111.823 Y78.087 E354.66303
G1 X111.191 Y77.217 E354.68410
G1 X111.084 Y77.071 E354.68765
G1 X110.258 Y76.389 E354.70864
G1 X110.120 Y76.274 E354.71216
G1 X109.147 Y75.817 E354.73322
G1 X108.985 Y75.740 E354.73674
G1 X107.752 Y75.505 E354.76133
G1 X106.678 Y75.572 E354.78242
G1 X106.497 Y75.584 E354.78597
G1 X105.476 Y75.915 E354.80700
G1 X105.304 Y75.972 E354.81055
G1 X104.397 Y76.547 E354.83159
G1 X104.245 Y76.644 E354.83513
G1 X103.511 Y77.425 E354.85613
G1 X103.389 Y77.555 E354.85962
G1 X102.873 Y78.494 E354.88062
G1 X102.783 Y78.654 E354.88421
G1 X102.518 Y79.692 E354.90520
G1 X102.471 Y79.869 E354.90879
G0 F10500 X103.001 Y79.820
;TYPE:WALL-OUTER
G1 F1320 X102.971 Y79.934 E354.91110
G1 X102.971 Y81.063 E354.93322
G1 X103.221 Y82.044 E354.95306
G1 X103.251 Y82.158 E354.95537
G1 X103.738 Y83.044 E354.97518
G1 X103.796 Y83.147 E354.97750
G1 X104.567 Y83.968 E354.99957
G1 X105.466 Y84.545 E355.02050
G1 X106.454 Y84.887 E355.04098
G1 X106.751 Y84.943 E355.04691
G1 X107.414 Y84.985 E355.05992
G1 X107.599 Y84.995 E355.06355
G1 X107.893 Y84.972 E355.06933
G1 X108.566 Y84.844 E355.08275
G1 X108.915 Y84.749 E355.08984
G1 X109.704 Y84.379 E355.10692
G1 X109.831 Y84.311 E355.10974
G1 X110.511 Y83.748 E355.12704
G1 X110.717 Y83.583 E355.13221
G1 X111.311 Y82.765 E355.15202
G1 X111.381 Y82.669 E355.15435
G1 X111.754 Y81.728 E355.17418
G1 X111.797 Y81.619 E355.17648
G1 X111.939 Y80.500 E355.19858
G1 X111.797 Y79.380 E355.22070
G1 X111.425 Y78.440 E355.24051
G1 X111.382 Y78.330 E355.24282
G1 X110.788 Y77.512 E355.26263
G1 X110.718 Y77.418 E355.26493
G1 X109.939 Y76.774 E355.28473
G1 X109.849 Y76.699 E355.28703
G1 X108.828 Y76.219 E355.30913
G1 X107.720 Y76.008 E355.33123
G1 X106.711 Y76.071 E355.35104
G1 X106.593 Y76.079 E355.35336
G1 X105.631 Y76.390 E355.37317
G1 X105.519 Y76.427 E355.37548
G1 X104.567 Y77.032 E355.39758
G1 X103.877 Y77.767 E355.41734
G1 X103.796 Y77.852 E355.41964
G1 X103.309 Y78.738 E355.43945
G1 X103.251 Y78.841 E355.44176
G1 X103.001 Y79.820 E355.46156
G0 F10500 X102.662 Y79.740
G0 X102.523 Y81.119
G0 X103.432 Y83.414
G0 X105.269 Y84.951
G0 X107.952 Y85.418
G0 X114.105 Y90.491
G0 X114.155 Y90.841
G1 F1320 X84.435 Y90.841 E356.04391
G1 X82.879 Y90.901 E356.07442
G1 X81.451 Y91.064 E356.10258
G1 X79.918 Y91.351 E356.13314
G1 X78.409 Y91.753 E356.16374
G1 X76.942 Y92.266 E356.19419
G1 X76.816 Y92.312 E356.19682
G1 X75.503 Y92.897 E356.22498
G1 X74.125 Y93.631 E356.25558
G1 X72.806 Y94.468 E356.28619
G1 X71.563 Y95.397 E356.31659
G1 X71.455 Y95.478 E356.31924
G1 X70.387 Y96.424 E356.34719
G1 X69.314 Y97.356 E356.37504
G1 X68.260 Y98.107 E356.40040
G1 X67.156 Y98.745 E356.42539
G1 X65.985 Y99.280 E356.45061
G1 X64.772 Y99.701 E356.47577
G1 X63.515 Y100.006 E356.50112
G1 X62.254 Y100.187 E356.52608
G1 X60.951 Y100.250 E356.55164
G1 X34.815 Y100.250 E357.06376
G1 X34.032 Y100.198 E357.07913
G1 X33.262 Y100.046 E357.09451
G1 X32.516 Y99.792 E357.10995
G1 X31.815 Y99.446 E357.12527
G1 X31.160 Y99.009 E357.14070
G1 X30.571 Y98.492 E357.15606
G1 X30.054 Y97.901 E357.17144
G1 X29.615 Y97.246 E357.18689
G1 X29.272 Y96.549 E357.20211
G1 X29.017 Y95.800 E357.21762
G1 X28.864 Y95.030 E357.23300
G1 X28.813 Y94.250 E357.24831
G1 X28.813 Y62.212 E357.87608
G1 X131.187 Y62.212 E359.88203
G1 X131.187 Y85.318 E360.33477
G1 X114.155 Y90.841 E360.68561
G0 F10500 X114.105 Y90.491
G0 X71.962 Y81.784
G0 X71.640 Y81.652
G1 F1320 X71.790 Y80.500 E360.70838
G1 X71.640 Y79.347 E360.73116
G1 X71.200 Y78.271 E360.75394
G1 X70.500 Y77.345 E360.77668
G1 X69.585 Y76.628 E360.79946
G1 X68.517 Y76.169 E360.82224
G1 X67.367 Y75.999 E360.84502
G1 X66.187 Y76.135 E360.86829
G1 X65.083 Y76.575 E360.89158
G1 X64.132 Y77.289 E360.91488
G1 X63.402 Y78.226 E360.93815
G1 X62.943 Y79.321 E360.96142
G1 X62.786 Y80.500 E360.98472
G1 X62.943 Y81.678 E361.00801
G1 X63.402 Y82.773 E361.03127
G1 X64.132 Y83.711 E361.05456
G1 X65.083 Y84.425 E361.07786
G1 X66.187 Y84.865 E361.10115
G1 X67.367 Y85.001 E361.12443
G1 X68.517 Y84.831 E361.14720
G1 X69.585 Y84.372 E361.16998
G1 X70.500 Y83.655 E361.19276
G1 X71.200 Y82.728 E361.21552
G1 X71.640 Y81.652 E361.23830
G0 F10500 X71.962 Y81.784
G0 X71.592 Y82.950
G0 X69.814 Y84.761
G0 X67.374 Y85.453
G0 X64.862 Y84.819
G0 X54.062 Y85.535
G0 X54.063 Y85.186
G1 F1320 X54.063 Y77.123 E361.39629
G1 X39.688 Y77.122 E361.67796
G1 X39.688 Y85.185 E361.83595
G1 X54.063 Y85.186 E362.11761
G0 F10500 X54.737 Y85.496
;TYPE:SKIN
G1 F1920 X67.187 Y97.946 E362.46261
G0 F10500 X67.635 Y97.687
G1 F1920 X54.737 Y84.789 E362.82002
G0 F10500 X54.737 Y84.082
G1 F1920 X68.068 Y97.413 E363.18943
G0 F10500 X68.481 Y97.119
G1 F1920 X54.737 Y83.375 E363.57028
G0 F10500 X54.737 Y82.668
G1 F1920 X68.894 Y96.825 E363.96258
G0 F10500 X69.271 Y96.495
G1 F1920 X54.737 Y81.961 E364.36533
G0 F10500 X54.737 Y81.254
G1 F1920 X69.647 Y96.164 E364.77849
G0 F10500 X70.024 Y95.834
G1 F1920 X54.737 Y80.547 E365.20210
G0 F10500 X54.394 Y85.860
G1 F1920 X66.730 Y98.196 E365.54394
G0 F10500 X66.244 Y98.417
G1 F1920 X53.687 Y85.860 E365.89190
G0 F10500 X52.979 Y85.860
G1 F1920 X65.759 Y98.639 E366.24603
G0 F10500 X65.236 Y98.823
G1 F1920 X52.272 Y85.860 E366.60526
G0 F10500 X51.565 Y85.860
G1 F1920 X64.710 Y99.005 E366.96951
G0 F10500 X64.152 Y99.154
G1 F1920 X50.858 Y85.860 E367.33790
G0 F10500 X50.151 Y85.860
G1 F1920 X63.584 Y99.293 E367.71013
G0 F10500 X62.984 Y99.400
G1 F1920 X49.444 Y85.860 E368.08533
G0 F10500 X48.737 Y85.860
G1 F1920 X62.366 Y99.489 E368.46300
G0 F10500 X61.707 Y99.537
G1 F1920 X48.030 Y85.860 E368.84200
G0 F10500 X47.323 Y85.860
G1 F1920 X61.031 Y99.569 E369.22187
G0 F10500 X60.329 Y99.574
G1 F1920 X46.615 Y85.859 E369.60191
G0 F10500 X45.908 Y85.859
G1 F1920 X59.622 Y99.574 E369.98194
G0 F10500 X58.915 Y99.574
G1 F1920 X45.201 Y85.859 E370.36198
G0 F10500 X44.493 Y85.859
G1 F1920 X58.208 Y99.574 E370.74203
G0 F10500 X57.501 Y99.574
G1 F1920 X43.786 Y85.859 E371.12208
G0 F10500 X43.079 Y85.859
G1 F1920 X56.794 Y99.574 E371.50213
G0 F10500 X56.087 Y99.574
G1 F1920 X42.372 Y85.859 E371.88218
G0 F10500 X41.665 Y85.859
G1 F1920 X55.379 Y99.574 E372.26222
G0 F10500 X54.672 Y99.574
G1 F1920 X40.958 Y85.859 E372.64225
G0 F10500 X40.251 Y85.859
G1 F1920 X53.965 Y99.574 E373.02229
G0 F10500 X53.258 Y99.574
G1 F1920 X39.544 Y85.859 E373.40233
G0 F10500 X39.013 Y85.328
G1 F1920 X29.487 Y75.803 E373.66628
G0 F10500 X29.487 Y76.510
G1 F1920 X52.551 Y99.574 E374.30540
G0 F10500 X51.844 Y99.574
G1 F1920 X29.487 Y77.217 E374.92493
G0 F10500 X29.487 Y77.924
G1 F1920 X51.137 Y99.574 E375.52486
G0 F10500 X50.430 Y99.574
G1 F1920 X29.487 Y78.631 E376.10520
G0 F10500 X29.487 Y79.338
G1 F1920 X49.723 Y99.574 E376.66595
G0 F10500 X49.015 Y99.574
G1 F1920 X29.487 Y80.045 E377.20710
G0 F10500 X29.487 Y80.753
G1 F1920 X48.308 Y99.574 E377.72864
G0 F10500 X47.601 Y99.574
G1 F1920 X29.487 Y81.460 E378.23059
G0 F10500 X29.487 Y82.167
G1 F1920 X46.894 Y99.574 E378.71295
G0 F10500 X46.187 Y99.574
G1 F1920 X29.487 Y82.874 E379.17571
G0 F10500 X29.487 Y83.581
G1 F1920 X45.480 Y99.574 E379.61889
G0 F10500 X44.773 Y99.574
G1 F1920 X29.487 Y84.288 E380.04247
G0 F10500 X29.487 Y84.995
G1 F1920 X44.066 Y99.574 E380.44646
G0 F10500 X43.359 Y99.574
G1 F1920 X29.487 Y85.702 E380.83086
G0 F10500 X29.487 Y86.409
G1 F1920 X42.651 Y99.574 E381.19566
G0 F10500 X41.944 Y99.574
G1 F1920 X29.487 Y87.116 E381.54086
G0 F10500 X29.487 Y87.824
G1 F1920 X41.237 Y99.574 E381.86646
G0 F10500 X40.530 Y99.574
G1 F1920 X29.487 Y88.531 E382.17247
G0 F10500 X29.487 Y89.238
G1 F1920 X39.823 Y99.574 E382.45889
G0 F10500 X39.116 Y99.574
G1 F1920 X29.487 Y89.945 E382.72571
G0 F10500 X29.487 Y90.652
G1 F1920 X38.409 Y99.574 E382.97295
G0 F10500 X37.702 Y99.574
G1 F1920 X29.487 Y91.359 E383.20059
G0 F10500 X29.487 Y92.066
G1 F1920 X36.995 Y99.574 E383.40864
G0 F10500 X36.288 Y99.574
G1 F1920 X29.487 Y92.773 E383.59710
G0 F10500 X29.487 Y93.480
G1 F1920 X35.580 Y99.574 E383.76595
G0 F10500 X34.873 Y99.574
G1 F1920 X29.487 Y94.188 E383.91520
G0 F10500 X29.533 Y94.941
G1 F1920 X34.119 Y99.526 E384.04227
G0 F10500 X33.193 Y99.308
G1 F1920 X29.752 Y95.867 E384.13762
G0 F10500 X30.432 Y97.254
G1 F1920 X31.809 Y98.630 E384.17577
G0 F10500 X39.013 Y84.621
G1 F1920 X29.487 Y75.096 E384.43972
G0 F10500 X29.487 Y74.389
G1 F1920 X39.013 Y83.914 E384.70368
G0 F10500 X39.013 Y83.207
G1 F1920 X29.487 Y73.681 E384.96765
G0 F10500 X29.487 Y72.974
G1 F1920 X39.013 Y82.500 E385.23162
G0 F10500 X39.013 Y81.793
G1 F1920 X29.487 Y72.267 E385.49559
G0 F10500 X29.487 Y71.560
G1 F1920 X39.013 Y81.086 E385.75956
G0 F10500 X39.013 Y80.378
G1 F1920 X29.487 Y70.853 E386.02352
G0 F10500 X29.487 Y70.146
G1 F1920 X39.013 Y79.671 E386.28748
G0 F10500 X39.013 Y78.964
G1 F1920 X29.487 Y69.439 E386.55143
G0 F10500 X29.487 Y68.732
G1 F1920 X39.013 Y78.257 E386.81539
G0 F10500 X39.013 Y77.550
G1 F1920 X29.487 Y68.025 E387.07935
G0 F10500 X29.487 Y67.317
G1 F1920 X39.013 Y76.843 E387.34332
G0 F10500 X39.322 Y76.446
G1 F1920 X29.487 Y66.610 E387.61587
G0 F10500 X29.487 Y65.903
G1 F1920 X40.030 Y76.446 E387.90802
G0 F10500 X40.737 Y76.446
G1 F1920 X29.487 Y65.196 E388.21976
G0 F10500 X29.487 Y64.489
G1 F1920 X41.444 Y76.446 E388.55110
G0 F10500 X42.151 Y76.446
G1 F1920 X29.487 Y63.782 E388.90202
G0 F10500 X29.487 Y63.075
G1 F1920 X42.858 Y76.446 E389.27254
G0 F10500 X43.565 Y76.446
G1 F1920 X30.006 Y62.886 E389.64828
G0 F10500 X30.713 Y62.886
G1 F1920 X44.272 Y76.446 E390.02403
G0 F10500 X44.979 Y76.446
G1 F1920 X31.420 Y62.886 E390.39977
G0 F10500 X32.127 Y62.886
G1 F1920 X45.686 Y76.446 E390.77551
G0 F10500 X46.393 Y76.446
G1 F1920 X32.834 Y62.886 E391.15125
G0 F10500 X33.541 Y62.886
G1 F1920 X47.101 Y76.446 E391.52700
G0 F10500 X47.808 Y76.446
G1 F1920 X34.248 Y62.886 E391.90276
G0 F10500 X34.955 Y62.886
G1 F1920 X48.516 Y76.446 E392.27853
G0 F10500 X49.223 Y76.446
G1 F1920 X35.662 Y62.886 E392.65430
G0 F10500 X36.370 Y62.886
G1 F1920 X49.930 Y76.446 E393.03005
G0 F10500 X50.637 Y76.446
G1 F1920 X37.077 Y62.886 E393.40581
G0 F10500 X37.784 Y62.886
G1 F1920 X51.344 Y76.446 E393.78156
G0 F10500 X52.051 Y76.446
G1 F1920 X38.491 Y62.886 E394.15732
G0 F10500 X39.198 Y62.886
G1 F1920 X52.758 Y76.446 E394.53307
G0 F10500 X53.465 Y76.446
G1 F1920 X39.905 Y62.886 E394.90883
G0 F10500 X40.612 Y62.886
G1 F1920 X54.172 Y76.446 E395.28459
G0 F10500 X54.737 Y77.011
G1 F1920 X71.972 Y94.246 E395.76218
G0 F10500 X71.568 Y94.549
G1 F1920 X54.737 Y77.718 E396.22857
G0 F10500 X54.737 Y78.425
G1 F1920 X71.163 Y94.851 E396.68375
G0 F10500 X70.777 Y95.172
G1 F1920 X54.737 Y79.133 E397.12821
G0 F10500 X54.737 Y79.840
G1 F1920 X70.400 Y95.503 E397.56224
G0 F10500 X72.377 Y93.944
G1 F1920 X41.319 Y62.886 E398.42288
G0 F10500 X42.026 Y62.886
G1 F1920 X72.806 Y93.666 E399.27581
G0 F10500 X73.239 Y93.391
G1 F1920 X64.942 Y85.094 E399.50572
G0 F10500 X66.086 Y85.532
G1 F1920 X73.671 Y93.116 E399.71589
G0 F10500 X74.126 Y92.864
G1 F1920 X66.885 Y85.624 E399.91653
G0 F10500 X67.615 Y85.646
G1 F1920 X74.587 Y92.618 E400.10973
G0 F10500 X75.049 Y92.373
G1 F1920 X68.231 Y85.555 E400.29866
G0 F10500 X68.819 Y85.436
G1 F1920 X75.531 Y92.148 E400.48465
G0 F10500 X76.022 Y91.932
G1 F1920 X69.313 Y85.223 E400.67056
G0 F10500 X69.807 Y85.010
G1 F1920 X76.514 Y91.717 E400.85642
G0 F10500 X77.025 Y91.521
G1 F1920 X70.229 Y84.725 E401.04474
G0 F10500 X70.625 Y84.414
G1 F1920 X77.549 Y91.337 E401.23659
G0 F10500 X78.073 Y91.154
G1 F1920 X71.013 Y84.094 E401.43223
G0 F10500 X71.317 Y83.691
G1 F1920 X78.621 Y90.996 E401.63464
G0 F10500 X79.179 Y90.846
G1 F1920 X71.621 Y83.288 E401.84408
G0 F10500 X71.882 Y82.842
G1 F1920 X79.738 Y90.698 E402.06177
G0 F10500 X80.332 Y90.585
G1 F1920 X72.087 Y82.340 E402.29025
G0 F10500 X72.293 Y81.839
G1 F1920 X80.928 Y90.474 E402.52953
G0 F10500 X81.535 Y90.373
G1 F1920 X72.377 Y81.216 E402.78329
G0 F10500 X72.458 Y80.590
G1 F1920 X82.170 Y90.301 E403.05240
G0 F10500 X82.804 Y90.228
G1 F1920 X72.380 Y79.804 E403.34125
G0 F10500 X72.191 Y78.908
G1 F1920 X83.483 Y90.201 E403.65417
G0 F10500 X84.164 Y90.175
G1 F1920 X71.384 Y77.394 E404.00833
G0 F10500 X70.386 Y76.397
G1 F1920 X56.876 Y62.886 E404.38271
G0 F10500 X56.169 Y62.886
G1 F1920 X68.864 Y75.581 E404.73450
G0 F10500 X67.981 Y75.406
G1 F1920 X55.461 Y62.886 E405.08143
G0 F10500 X54.754 Y62.886
G1 F1920 X67.206 Y75.338 E405.42649
G0 F10500 X66.571 Y75.410
G1 F1920 X54.047 Y62.886 E405.77353
G0 F10500 X53.340 Y62.886
G1 F1920 X65.954 Y75.500 E406.12307
G0 F10500 X65.448 Y75.701
G1 F1920 X52.633 Y62.886 E406.47819
G0 F10500 X51.926 Y62.886
G1 F1920 X64.942 Y75.902 E406.83887
G0 F10500 X64.500 Y76.167
G1 F1920 X51.219 Y62.886 E407.20689
G0 F10500 X50.512 Y62.886
G1 F1920 X64.095 Y76.470 E407.58330
G0 F10500 X63.691 Y76.773
G1 F1920 X49.805 Y62.886 E407.96810
G0 F10500 X49.097 Y62.886
G1 F1920 X63.374 Y77.163 E408.36372
G0 F10500 X63.064 Y77.560
G1 F1920 X48.390 Y62.886 E408.77035
G0 F10500 X47.683 Y62.886
G1 F1920 X62.774 Y77.977 E409.18853
G0 F10500 X62.566 Y78.476
G1 F1920 X46.976 Y62.886 E409.62054
G0 F10500 X46.269 Y62.886
G1 F1920 X62.356 Y78.973 E410.06632
G0 F10500 X62.231 Y79.555
G1 F1920 X45.562 Y62.886 E410.52822
G0 F10500 X44.855 Y62.886
G1 F1920 X62.147 Y80.178 E411.00739
G0 F10500 X62.157 Y80.895
G1 F1920 X44.148 Y62.886 E411.50643
G0 F10500 X43.441 Y62.886
G1 F1920 X62.266 Y81.711 E412.02809
G0 F10500 X62.706 Y82.858
G1 F1920 X42.733 Y62.886 E412.58153
G0 F10500 X57.583 Y62.886
G1 F1920 X84.862 Y90.165 E413.33745
G0 F10500 X85.569 Y90.165
G1 F1920 X58.290 Y62.886 E414.09337
G0 F10500 X58.997 Y62.886
G1 F1920 X86.276 Y90.165 E414.84928
G0 F10500 X86.983 Y90.165
G1 F1920 X59.704 Y62.886 E415.60520
G0 F10500 X60.411 Y62.886
G1 F1920 X87.690 Y90.165 E416.36112
G0 F10500 X88.397 Y90.165
G1 F1920 X61.118 Y62.886 E417.11703
G0 F10500 X61.825 Y62.886
G1 F1920 X89.104 Y90.165 E417.87295
G0 F10500 X89.811 Y90.165
G1 F1920 X62.532 Y62.886 E418.62887
G0 F10500 X63.240 Y62.886
G1 F1920 X90.518 Y90.165 E419.38477
G0 F10500 X91.225 Y90.165
G1 F1920 X63.947 Y62.886 E420.14067
G0 F10500 X64.654 Y62.886
G1 F1920 X91.933 Y90.165 E420.89659
G0 F10500 X92.640 Y90.165
G1 F1920 X65.361 Y62.886 E421.65251
G0 F10500 X66.068 Y62.886
G1 F1920 X93.347 Y90.165 E422.40842
G0 F10500 X94.054 Y90.165
G1 F1920 X66.775 Y62.886 E423.16434
G0 F10500 X67.482 Y62.886
G1 F1920 X94.761 Y90.165 E423.92026
G0 F10500 X95.468 Y90.165
G1 F1920 X68.189 Y62.886 E424.67617
G0 F10500 X68.896 Y62.886
G1 F1920 X96.175 Y90.165 E425.43209
G0 F10500 X96.882 Y90.165
G1 F1920 X69.604 Y62.886 E426.18799
G0 F10500 X70.311 Y62.886
G1 F1920 X97.589 Y90.165 E426.94389
G0 F10500 X98.297 Y90.165
G1 F1920 X71.018 Y62.886 E427.69981
G0 F10500 X71.725 Y62.886
G1 F1920 X99.004 Y90.165 E428.45573
G0 F10500 X99.711 Y90.165
G1 F1920 X72.432 Y62.886 E429.21164
G0 F10500 X73.139 Y62.886
G1 F1920 X100.418 Y90.165 E429.96756
G0 F10500 X101.125 Y90.165
G1 F1920 X73.846 Y62.886 E430.72348
G0 F10500 X74.553 Y62.886
G1 F1920 X101.832 Y90.165 E431.47939
G0 F10500 X102.539 Y90.165
G1 F1920 X75.260 Y62.886 E432.23531
G0 F10500 X75.968 Y62.886
G1 F1920 X103.246 Y90.165 E432.99121
G0 F10500 X103.953 Y90.165
G1 F1920 X76.675 Y62.886 E433.74712
G0 F10500 X77.382 Y62.886
G1 F1920 X104.660 Y90.165 E434.50302
G0 F10500 X105.368 Y90.165
G1 F1920 X78.089 Y62.886 E435.25893
G0 F10500 X78.796 Y62.886
G1 F1920 X106.075 Y90.165 E436.01485
G0 F10500 X106.782 Y90.165
G1 F1920 X79.503 Y62.886 E436.77077
G0 F10500 X80.210 Y62.886
G1 F1920 X107.489 Y90.165 E437.52668
G0 F10500 X108.196 Y90.165
G1 F1920 X80.917 Y62.886 E438.28260
G0 F10500 X81.624 Y62.886
G1 F1920 X108.903 Y90.165 E439.03852
G0 F10500 X109.610 Y90.165
G1 F1920 X82.331 Y62.886 E439.79443
G0 F10500 X83.039 Y62.886
G1 F1920 X102.688 Y82.536 E440.33893
G0 F10500 X102.396 Y81.536
G1 F1920 X83.746 Y62.886 E440.85573
G0 F10500 X84.453 Y62.886
G1 F1920 X102.295 Y80.728 E441.35015
G0 F10500 X102.295 Y80.021
G1 F1920 X85.160 Y62.886 E441.82497
G0 F10500 X85.867 Y62.886
G1 F1920 X102.404 Y79.423 E442.28322
G0 F10500 X102.548 Y78.860
G1 F1920 X86.574 Y62.886 E442.72587
G0 F10500 X87.281 Y62.886
G1 F1920 X102.748 Y78.353 E443.15446
G0 F10500 X103.000 Y77.897
G1 F1920 X87.988 Y62.886 E443.57044
G0 F10500 X88.695 Y62.886
G1 F1920 X103.253 Y77.443 E443.97384
G0 F10500 X103.595 Y77.078
G1 F1920 X89.403 Y62.886 E444.36711
G0 F10500 X90.110 Y62.886
G1 F1920 X103.937 Y76.714 E444.75027
G0 F10500 X104.318 Y76.388
G1 F1920 X90.817 Y62.886 E445.12441
G0 F10500 X91.524 Y62.886
G1 F1920 X104.751 Y76.113 E445.49094
G0 F10500 X105.183 Y75.838
G1 F1920 X92.231 Y62.886 E445.84984
G0 F10500 X92.938 Y62.886
G1 F1920 X105.707 Y75.655 E446.20368
G0 F10500 X106.241 Y75.482
G1 F1920 X93.645 Y62.886 E446.55272
G0 F10500 X94.352 Y62.886
G1 F1920 X106.852 Y75.386 E446.89910
G0 F10500 X107.518 Y75.345
G1 F1920 X95.059 Y62.886 E447.24435
G0 F10500 X95.767 Y62.886
G1 F1920 X108.315 Y75.434 E447.59206
G0 F10500 X109.266 Y75.678
G1 F1920 X96.474 Y62.886 E447.94654
G0 F10500 X97.181 Y62.886
G1 F1920 X121.910 Y87.616 E448.63180
G0 F10500 X121.377 Y87.789
G1 F1920 X112.229 Y78.642 E448.88529
G0 F10500 X112.509 Y79.628
G1 F1920 X120.843 Y87.962 E449.11623
G0 F10500 X120.309 Y88.135
G1 F1920 X112.611 Y80.438 E449.32953
G0 F10500 X112.545 Y81.078
G1 F1920 X119.775 Y88.309 E449.52989
G0 F10500 X119.240 Y88.481
G1 F1920 X112.466 Y81.706 E449.71762
G0 F10500 X112.280 Y82.228
G1 F1920 X118.706 Y88.654 E449.89568
G0 F10500 X118.173 Y88.828
G1 F1920 X112.079 Y82.734 E450.06455
G0 F10500 X111.832 Y83.194
G1 F1920 X117.639 Y89.001 E450.22547
G0 F10500 X117.105 Y89.174
G1 F1920 X111.534 Y83.604 E450.37983
G0 F10500 X111.237 Y84.013
G1 F1920 X116.571 Y89.347 E450.52764
G0 F10500 X116.037 Y89.521
G1 F1920 X110.855 Y84.339 E450.67123
G0 F10500 X110.469 Y84.659
G1 F1920 X115.503 Y89.694 E450.81074
G0 F10500 X114.969 Y89.866
G1 F1920 X110.058 Y84.956 E450.94681
G0 F10500 X109.578 Y85.183
G1 F1920 X114.435 Y90.040 E451.08140
G0 F10500 X113.853 Y90.165
G1 F1920 X109.089 Y85.401 E451.21342
G0 F10500 X108.520 Y85.539
G1 F1920 X113.146 Y90.165 E451.34161
G0 F10500 X112.439 Y90.165
G1 F1920 X107.920 Y85.646 E451.46683
G0 F10500 X107.215 Y85.648
G1 F1920 X111.732 Y90.165 E451.59200
G0 F10500 X111.024 Y90.165
G1 F1920 X106.428 Y85.569 E451.71936
G0 F10500 X105.383 Y85.231
G1 F1920 X110.317 Y90.165 E451.85608
G0 F10500 X122.444 Y87.442
G1 F1920 X97.888 Y62.886 E452.53654
G0 F10500 X98.595 Y62.886
G1 F1920 X122.978 Y87.269 E453.21221
G0 F10500 X123.513 Y87.097
G1 F1920 X99.302 Y62.886 E453.88311
G0 F10500 X100.009 Y62.886
G1 F1920 X124.047 Y86.923 E454.54920
G0 F10500 X124.580 Y86.750
G1 F1920 X100.716 Y62.886 E455.21049
G0 F10500 X101.423 Y62.886
G1 F1920 X125.114 Y86.577 E455.86698
G0 F10500 X125.648 Y86.404
G1 F1920 X102.130 Y62.886 E456.51868
G0 F10500 X102.838 Y62.886
G1 F1920 X126.182 Y86.230 E457.16555
G0 F10500 X126.716 Y86.057
G1 F1920 X103.545 Y62.886 E457.80763
G0 F10500 X104.252 Y62.886
G1 F1920 X127.250 Y85.885 E458.44493
G0 F10500 X127.784 Y85.711
G1 F1920 X104.959 Y62.886 E459.07743
G0 F10500 X105.666 Y62.886
G1 F1920 X128.318 Y85.538 E459.70513
G0 F10500 X128.852 Y85.365
G1 F1920 X106.373 Y62.886 E460.32803
G0 F10500 X107.080 Y62.886
G1 F1920 X129.386 Y85.192 E460.94614
G0 F10500 X129.920 Y85.018
G1 F1920 X107.787 Y62.886 E461.55945
G0 F10500 X108.494 Y62.886
G1 F1920 X130.454 Y84.845 E462.16796
G0 F10500 X130.511 Y84.195
G1 F1920 X109.202 Y62.886 E462.75844
G0 F10500 X109.909 Y62.886
G1 F1920 X130.511 Y83.488 E463.32934
G0 F10500 X130.511 Y82.781
G1 F1920 X110.616 Y62.886 E463.88064
G0 F10500 X111.323 Y62.886
G1 F1920 X130.511 Y82.074 E464.41235
G0 F10500 X130.511 Y81.367
G1 F1920 X112.030 Y62.886 E464.92447
G0 F10500 X112.737 Y62.886
G1 F1920 X130.511 Y80.660 E465.41700
G0 F10500 X130.511 Y79.953
G1 F1920 X113.444 Y62.886 E465.88993
G0 F10500 X114.151 Y62.886
G1 F1920 X130.511 Y79.246 E466.34328
G0 F10500 X130.511 Y78.539
G1 F1920 X114.858 Y62.886 E466.77703
G0 F10500 X115.565 Y62.886
G1 F1920 X130.511 Y77.831 E467.19118
G0 F10500 X130.511 Y77.124
G1 F1920 X116.273 Y62.886 E467.58572
G0 F10500 X116.980 Y62.886
G1 F1920 X130.511 Y76.417 E467.96067
G0 F10500 X130.511 Y75.710
G1 F1920 X117.687 Y62.886 E468.31603
G0 F10500 X118.394 Y62.886
G1 F1920 X130.511 Y75.003 E468.65180
G0 F10500 X130.511 Y74.296
G1 F1920 X119.101 Y62.886 E468.96798
G0 F10500 X119.808 Y62.886
G1 F1920 X130.511 Y73.589 E469.26457
G0 F10500 X130.511 Y72.882
G1 F1920 X120.515 Y62.886 E469.54156
G0 F10500 X121.222 Y62.886
G1 F1920 X130.511 Y72.175 E469.79896
G0 F10500 X130.511 Y71.467
G1 F1920 X121.929 Y62.886 E470.03676
G0 F10500 X122.637 Y62.886
G1 F1920 X130.511 Y70.760 E470.25496
G0 F10500 X130.511 Y70.053
G1 F1920 X123.344 Y62.886 E470.45356
G0 F10500 X124.051 Y62.886
G1 F1920 X130.511 Y69.346 E470.63257
G0 F10500 X130.511 Y68.639
G1 F1920 X124.758 Y62.886 E470.79199
G0 F10500 X125.465 Y62.886
G1 F1920 X130.511 Y67.932 E470.93181
G0 F10500 X130.511 Y67.225
G1 F1920 X126.172 Y62.886 E471.05205
G0 F10500 X126.879 Y62.886
G1 F1920 X130.511 Y66.518 E471.15269
G0 F10500 X130.511 Y65.811
G1 F1920 X127.586 Y62.886 E471.23375
G0 F10500 X128.293 Y62.886
G1 F1920 X130.511 Y65.104 E471.29521
G0 F10500 X130.511 Y64.396
G1 F1920 X129.001 Y62.886 E471.33705
G0 F10500 X129.708 Y62.886
G1 F1920 X130.511 Y63.689 E471.35930
G0 F10500 X130.511 Y62.982
G1 F1920 X130.415 Y62.886 E471.36197
;LAYER:3
G0 F10500 X130.687 Y62.502 Z1.175
;TYPE:WALL-INNER
G1 F1740 X130.687 Y84.954 E471.80190
G1 X114.075 Y90.341 E472.14409
G1 X107.936 Y90.341 E472.26437
G1 X107.680 Y90.293 E472.26948
G1 X106.897 Y90.341 E472.28485
G1 X84.426 Y90.341 E472.72515
G1 X83.030 Y90.394 E472.75253
G1 X82.839 Y90.402 E472.75627
G1 X81.439 Y90.562 E472.78388
G1 X81.250 Y90.584 E472.78761
G1 X79.843 Y90.856 E472.81569
G1 X78.301 Y91.264 E472.84695
G1 X76.788 Y91.790 E472.87833
G1 X75.322 Y92.430 E472.90968
G1 X73.931 Y93.168 E472.94053
G1 X72.554 Y94.036 E472.97242
G1 X71.273 Y94.989 E473.00371
G1 X69.005 Y96.963 E473.06262
G1 X67.992 Y97.684 E473.08699
G1 X66.929 Y98.299 E473.11105
G1 X65.802 Y98.814 E473.13533
G1 X64.625 Y99.222 E473.15974
G1 X63.420 Y99.515 E473.18404
G1 X62.202 Y99.690 E473.20815
G1 X60.948 Y99.750 E473.23275
G1 X34.833 Y99.750 E473.74445
G1 X34.100 Y99.702 E473.75885
G1 X33.385 Y99.560 E473.77313
G1 X32.707 Y99.329 E473.78717
G1 X32.067 Y99.013 E473.80115
G1 X31.468 Y98.614 E473.81525
G1 X30.922 Y98.134 E473.82950
G1 X30.453 Y97.599 E473.84344
G1 X30.050 Y96.997 E473.85763
G1 X29.733 Y96.352 E473.87172
G1 X29.504 Y95.678 E473.88567
G1 X29.360 Y94.960 E473.90001
G1 X29.313 Y94.232 E473.91431
G1 X29.313 Y62.502 E474.53604
G1 X124.664 Y62.501 E476.40438
G1 X125.288 Y62.502 E476.41660
G1 X130.687 Y62.502 E476.52239
G0 F10500 X111.086 Y77.073
G1 F1740 X110.119 Y76.274 E476.54697
G1 X108.984 Y75.740 E476.57155
G1 X107.752 Y75.505 E476.59612
G1 X106.703 Y75.570 E476.61672
G1 X106.497 Y75.584 E476.62076
G1 X105.502 Y75.907 E476.64126
G1 X105.304 Y75.971 E476.64534
G1 X104.423 Y76.532 E476.66580
G1 X104.247 Y76.643 E476.66988
G1 X103.388 Y77.556 E476.69444
G1 X102.881 Y78.475 E476.71501
G1 X102.782 Y78.658 E476.71909
G1 X102.471 Y79.873 E476.74366
G1 X102.471 Y81.126 E476.76821
G1 X102.782 Y82.342 E476.79281
G1 X103.288 Y83.261 E476.81336
G1 X103.387 Y83.441 E476.81739
G1 X104.244 Y84.354 E476.84193
G1 X105.227 Y84.989 E476.86486
G1 X106.285 Y85.362 E476.88684
G1 X106.733 Y85.447 E476.89577
G1 X107.299 Y85.482 E476.90688
G1 X107.558 Y85.496 E476.91197
G1 X108.026 Y85.460 E476.92116
G1 X108.593 Y85.351 E476.93248
G1 X108.949 Y85.266 E476.93965
G1 X109.138 Y85.199 E476.94358
G1 X109.893 Y84.847 E476.95990
G1 X110.104 Y84.731 E476.96462
G1 X110.763 Y84.186 E476.98137
G1 X111.082 Y83.932 E476.98936
G1 X111.824 Y82.911 E477.01410
G1 X112.209 Y81.937 E477.03462
G1 X112.285 Y81.745 E477.03866
G1 X112.415 Y80.711 E477.05908
G1 X112.443 Y80.503 E477.06320
G1 X112.312 Y79.457 E477.08385
G1 X112.284 Y79.252 E477.08791
G1 X111.900 Y78.280 E477.10838
G1 X111.823 Y78.087 E477.11245
G1 X111.086 Y77.073 E477.13702
G0 F10500 X108.967 Y75.790
G0 X106.507 Y75.636
G0 X104.280 Y76.683
G0 X72.294 Y80.500
G1 F1740 X72.127 Y79.218 E477.16235
G1 X71.638 Y78.022 E477.18767
G1 X70.859 Y76.992 E477.21297
G1 X69.842 Y76.194 E477.23830
G1 X68.654 Y75.684 E477.26363
G1 X67.375 Y75.495 E477.28897
G1 X66.064 Y75.646 E477.31483
G1 X64.836 Y76.135 E477.34072
G1 X63.779 Y76.929 E477.36663
G1 X62.967 Y77.971 E477.39251
G1 X62.456 Y79.189 E477.41839
G1 X62.281 Y80.500 E477.44431
G1 X62.456 Y81.810 E477.47021
G1 X62.967 Y83.028 E477.49609
G1 X63.779 Y84.071 E477.52199
G1 X64.836 Y84.865 E477.54789
G1 X66.064 Y85.354 E477.57379
G1 X67.375 Y85.505 E477.59965
G1 X68.654 Y85.316 E477.62498
G1 X69.842 Y84.806 E477.65031
G1 X70.860 Y84.008 E477.67566
G1 X71.638 Y82.977 E477.70097
G1 X72.127 Y81.781 E477.72629
G1 X72.294 Y80.500 E477.75160
G0 F10500 X71.592 Y78.048
G0 X69.814 Y76.239
G0 X67.374 Y75.547
G0 X64.862 Y76.181
G0 X54.563 Y75.956
G1 F1740 X39.188 Y75.955 E478.05286
G1 X39.188 Y86.352 E478.25658
G1 X54.563 Y86.353 E478.55785
G1 X54.563 Y75.956 E478.76157
G0 F10500 X54.063 Y76.456
;TYPE:WALL-OUTER
G1 F1500 X39.688 Y76.455 E479.04324
G1 X39.688 Y85.852 E479.22737
G1 X54.063 Y85.853 E479.50903
G1 X54.063 Y76.456 E479.69316
G0 F10500 X54.413 Y76.456
G0 X62.620 Y79.187
G0 X62.943 Y79.321
G1 F1500 X62.786 Y80.500 E479.71647
G1 X62.943 Y81.678 E479.73975
G1 X63.402 Y82.773 E479.76302
G1 X64.132 Y83.711 E479.78631
G1 X65.083 Y84.425 E479.80961
G1 X66.187 Y84.865 E479.83290
G1 X67.367 Y85.001 E479.85617
G1 X68.517 Y84.831 E479.87895
G1 X69.585 Y84.372 E479.90173
G1 X70.500 Y83.655 E479.92450
G1 X71.200 Y82.728 E479.94726
G1 X71.640 Y81.652 E479.97004
G1 X71.790 Y80.500 E479.99281
G1 X71.640 Y79.347 E480.01559
G1 X71.200 Y78.271 E480.03837
G1 X70.500 Y77.345 E480.06111
G1 X69.585 Y76.628 E480.08389
G1 X68.517 Y76.169 E480.10667
G1 X67.367 Y75.999 E480.12945
G1 X66.187 Y76.135 E480.15272
G1 X65.083 Y76.575 E480.17601
G1 X64.132 Y77.289 E480.19931
G1 X63.402 Y78.226 E480.22258
G1 X62.943 Y79.321 E480.24585
G0 F10500 X62.620 Y79.187
G0 X62.334 Y80.500
G0 X63.013 Y83.002
G0 X64.862 Y84.819
G0 X72.651 Y94.152
G0 X72.839 Y94.447
G1 F1500 X71.587 Y95.379 E480.27643
G1 X69.314 Y97.356 E480.33546
G1 X68.260 Y98.107 E480.36082
G1 X67.156 Y98.745 E480.38580
G1 X65.985 Y99.280 E480.41103
G1 X64.772 Y99.701 E480.43619
G1 X63.515 Y100.006 E480.46153
G1 X62.254 Y100.187 E480.48649
G1 X60.951 Y100.250 E480.51205
G1 X34.815 Y100.250 E481.02417
G1 X34.032 Y100.198 E481.03955
G1 X33.262 Y100.046 E481.05493
G1 X32.516 Y99.792 E481.07037
G1 X31.815 Y99.446 E481.08569
G1 X31.160 Y99.009 E481.10111
G1 X30.571 Y98.492 E481.11647
G1 X30.054 Y97.901 E481.13186
G1 X29.615 Y97.246 E481.14731
G1 X29.272 Y96.549 E481.16253
G1 X29.017 Y95.800 E481.17803
G1 X28.864 Y95.030 E481.19341
G1 X28.813 Y94.250 E481.20873
G1 X28.813 Y62.002 E481.84061
G1 X131.187 Y62.002 E483.84656
G1 X131.187 Y85.318 E484.30342
G1 X114.155 Y90.841 E484.65426
G1 X107.891 Y90.841 E484.77700
G1 X107.649 Y90.796 E484.78182
G1 X106.912 Y90.841 E484.79629
G1 X84.435 Y90.841 E485.23671
G1 X83.050 Y90.893 E485.26387
G1 X82.878 Y90.901 E485.26724
G1 X81.327 Y91.079 E485.29783
G1 X79.954 Y91.344 E485.32523
G1 X78.447 Y91.743 E485.35578
G1 X76.971 Y92.256 E485.38639
G1 X75.539 Y92.881 E485.41701
G1 X74.167 Y93.609 E485.44744
G1 X74.015 Y93.690 E485.45082
G1 X72.839 Y94.447 E485.47822
G0 F10500 X72.651 Y94.152
G0 X76.808 Y91.837
G0 X79.855 Y90.905
G0 X102.912 Y82.242
G0 X103.251 Y82.157
G1 F1500 X103.726 Y83.020 E485.49752
G1 X103.795 Y83.146 E485.50034
G1 X104.567 Y83.967 E485.52242
G1 X105.449 Y84.537 E485.54300
G1 X106.415 Y84.878 E485.56307
G1 X106.795 Y84.950 E485.57065
G1 X107.328 Y84.983 E485.58111
G1 X107.561 Y84.995 E485.58568
G1 X107.792 Y84.985 E485.59022
G1 X108.488 Y84.862 E485.60406
G1 X108.948 Y84.736 E485.61341
G1 X109.667 Y84.400 E485.62896
G1 X109.823 Y84.315 E485.63244
G1 X110.454 Y83.794 E485.64848
G1 X110.717 Y83.583 E485.65508
G1 X111.382 Y82.668 E485.67725
G1 X111.744 Y81.753 E485.69653
G1 X111.797 Y81.619 E485.69935
G1 X111.920 Y80.644 E485.71861
G1 X111.939 Y80.501 E485.72143
G1 X111.816 Y79.522 E485.74077
G1 X111.797 Y79.379 E485.74359
G1 X111.435 Y78.465 E485.76286
G1 X111.382 Y78.330 E485.76570
G1 X110.719 Y77.418 E485.78779
G1 X109.849 Y76.699 E485.80991
G1 X108.828 Y76.219 E485.83201
G1 X107.720 Y76.008 E485.85411
G1 X106.736 Y76.069 E485.87343
G1 X106.593 Y76.079 E485.87624
G1 X105.520 Y76.427 E485.89834
G1 X104.567 Y77.032 E485.92046
G1 X103.795 Y77.853 E485.94254
G1 X103.320 Y78.716 E485.96184
G1 X103.251 Y78.843 E485.96468
G1 X102.971 Y79.936 E485.98679
G1 X102.971 Y81.063 E486.00887
G1 X103.251 Y82.157 E486.03100
G0 F10500 X102.594 Y82.314
;TYPE:SKIN
G1 F2400 X94.742 Y90.166 E486.24858
G0 F10500 X95.449 Y90.166
G1 F2400 X102.827 Y82.788 E486.45303
G0 F10500 X103.078 Y83.244
G1 F2400 X96.156 Y90.166 E486.64484
G0 F10500 X96.863 Y90.166
G1 F2400 X103.360 Y83.669 E486.82488
G0 F10500 X103.702 Y84.033
G1 F2400 X97.570 Y90.166 E486.99481
G0 F10500 X98.277 Y90.166
G1 F2400 X104.045 Y84.398 E487.15464
G0 F10500 X104.453 Y84.697
G1 F2400 X98.985 Y90.166 E487.30618
G0 F10500 X99.692 Y90.166
G1 F2400 X104.883 Y84.975 E487.45003
G0 F10500 X105.348 Y85.216
G1 F2400 X100.399 Y90.166 E487.58718
G0 F10500 X101.106 Y90.166
G1 F2400 X105.871 Y85.400 E487.71923
G0 F10500 X106.415 Y85.564
G1 F2400 X101.813 Y90.166 E487.84676
G0 F10500 X102.520 Y90.166
G1 F2400 X107.046 Y85.640 E487.97218
G0 F10500 X107.736 Y85.657
G1 F2400 X103.227 Y90.166 E488.09712
G0 F10500 X103.934 Y90.166
G1 F2400 X108.567 Y85.533 E488.22551
G0 F10500 X109.659 Y85.148
G1 F2400 X104.641 Y90.166 E488.36456
G0 F10500 X105.349 Y90.166
G1 F2400 X130.511 Y65.003 E489.06182
G0 F10500 X130.511 Y65.710
G1 F2400 X106.056 Y90.166 E489.73950
G0 F10500 X106.763 Y90.166
G1 F2400 X130.511 Y66.417 E490.39758
G0 F10500 X130.511 Y67.124
G1 F2400 X107.506 Y90.129 E491.03507
G0 F10500 X108.177 Y90.166
G1 F2400 X130.511 Y67.832 E491.65395
G0 F10500 X130.511 Y68.539
G1 F2400 X108.884 Y90.166 E492.25325
G0 F10500 X109.591 Y90.166
G1 F2400 X130.511 Y69.246 E492.83296
G0 F10500 X130.511 Y69.953
G1 F2400 X110.298 Y90.166 E493.39307
G0 F10500 X111.005 Y90.166
G1 F2400 X130.511 Y70.660 E493.93359
G0 F10500 X130.511 Y71.367
G1 F2400 X111.712 Y90.166 E494.45452
G0 F10500 X112.420 Y90.166
G1 F2400 X130.511 Y72.074 E494.95585
G0 F10500 X130.511 Y72.781
G1 F2400 X113.127 Y90.166 E495.43758
G0 F10500 X113.834 Y90.166
G1 F2400 X130.511 Y73.488 E495.89973
G0 F10500 X130.511 Y74.196
G1 F2400 X114.778 Y89.929 E496.33570
G0 F10500 X115.824 Y89.589
G1 F2400 X130.511 Y74.903 E496.74267
G0 F10500 X130.511 Y75.610
G1 F2400 X116.871 Y89.250 E497.12064
G0 F10500 X117.917 Y88.910
G1 F2400 X130.511 Y76.317 E497.46961
G0 F10500 X130.511 Y77.024
G1 F2400 X118.964 Y88.571 E497.78959
G0 F10500 X112.086 Y82.721
G1 F2400 X130.511 Y64.296 E498.30015
G0 F10500 X130.511 Y63.589
G1 F2400 X112.477 Y81.623 E498.79989
G0 F10500 X112.580 Y80.813
G1 F2400 X130.511 Y62.882 E499.29676
G0 F10500 X130.010 Y62.676
G1 F2400 X112.570 Y80.115 E499.78002
G0 F10500 X111.047 Y77.110
G0 X108.967 Y75.790
G0 X106.507 Y75.636
G0 X104.280 Y76.683
G0 X102.830 Y78.678
G0 X102.523 Y81.119
G0 X102.449 Y81.751
G1 F2400 X94.035 Y90.166 E500.01319
G0 F10500 X93.328 Y90.166
G1 F2400 X102.306 Y81.187 E500.26199
G0 F10500 X102.295 Y80.492
G1 F2400 X92.621 Y90.166 E500.53006
G0 F10500 X91.913 Y90.166
G1 F2400 X102.318 Y79.761 E500.81839
G0 F10500 X102.560 Y78.812
G1 F2400 X91.206 Y90.166 E501.13302
G0 F10500 X90.499 Y90.166
G1 F2400 X103.747 Y76.918 E501.50013
G0 F10500 X104.201 Y76.464
G1 F2400 X117.989 Y62.676 E501.88220
G0 F10500 X118.696 Y62.676
G1 F2400 X105.720 Y75.651 E502.24176
G0 F10500 X106.681 Y75.398
G1 F2400 X119.403 Y62.676 E502.59429
G0 F10500 X120.110 Y62.676
G1 F2400 X107.435 Y75.351 E502.94553
G0 F10500 X108.099 Y75.394
G1 F2400 X120.817 Y62.676 E503.29795
G0 F10500 X121.524 Y62.676
G1 F2400 X108.694 Y75.506 E503.65347
G0 F10500 X109.240 Y75.668
G1 F2400 X122.231 Y62.676 E504.01348
G0 F10500 X122.938 Y62.676
G1 F2400 X109.721 Y75.894 E504.37974
G0 F10500 X110.201 Y76.120
G1 F2400 X123.646 Y62.676 E504.75230
G0 F10500 X124.353 Y62.676
G1 F2400 X110.590 Y76.438 E505.13366
G0 F10500 X110.978 Y76.758
G1 F2400 X125.060 Y62.676 E505.52388
G0 F10500 X125.767 Y62.676
G1 F2400 X111.331 Y77.112 E505.92391
G0 F10500 X111.628 Y77.522
G1 F2400 X126.474 Y62.676 E506.33530
G0 F10500 X127.181 Y62.676
G1 F2400 X111.925 Y77.932 E506.75806
G0 F10500 X112.142 Y78.422
G1 F2400 X127.888 Y62.676 E507.19439
G0 F10500 X128.595 Y62.676
G1 F2400 X112.344 Y78.927 E507.64471
G0 F10500 X112.490 Y79.488
G1 F2400 X129.302 Y62.676 E508.11058
G0 F10500 X130.511 Y77.731
G1 F2400 X120.010 Y88.232 E508.40157
G0 F10500 X121.057 Y87.892
G1 F2400 X130.511 Y78.438 E508.66355
G0 F10500 X130.511 Y79.145
G1 F2400 X122.103 Y87.553 E508.89654
G0 F10500 X123.150 Y87.213
G1 F2400 X130.511 Y79.852 E509.10051
G0 F10500 X130.511 Y80.559
G1 F2400 X124.196 Y86.874 E509.27551
G0 F10500 X125.243 Y86.535
G1 F2400 X130.511 Y81.267 E509.42148
G0 F10500 X130.511 Y81.974
G1 F2400 X126.289 Y86.195 E509.53846
G0 F10500 X127.335 Y85.856
G1 F2400 X130.511 Y82.681 E509.62646
G0 F10500 X130.511 Y83.388
G1 F2400 X128.382 Y85.517 E509.68546
G0 F10500 X129.428 Y85.178
G1 F2400 X130.511 Y84.095 E509.71547
G0 F10500 X117.282 Y62.676
G1 F2400 X89.792 Y90.166 E510.47723
G0 F10500 X89.085 Y90.166
G1 F2400 X116.575 Y62.676 E511.23899
G0 F10500 X115.867 Y62.676
G1 F2400 X88.378 Y90.166 E512.00074
G0 F10500 X87.671 Y90.166
G1 F2400 X115.160 Y62.676 E512.76249
G0 F10500 X114.453 Y62.676
G1 F2400 X86.964 Y90.166 E513.52424
G0 F10500 X86.257 Y90.166
G1 F2400 X113.746 Y62.676 E514.28599
G0 F10500 X113.039 Y62.676
G1 F2400 X85.550 Y90.166 E515.04774
G0 F10500 X84.842 Y90.166
G1 F2400 X112.332 Y62.676 E515.80950
G0 F10500 X111.625 Y62.676
G1 F2400 X84.124 Y90.177 E516.57157
G0 F10500 X83.389 Y90.205
G1 F2400 X110.918 Y62.676 E517.33442
G0 F10500 X110.211 Y62.676
G1 F2400 X82.638 Y90.248 E518.09847
G0 F10500 X81.839 Y90.340
G1 F2400 X109.503 Y62.676 E518.86505
G0 F10500 X108.796 Y62.676
G1 F2400 X81.023 Y90.449 E519.63466
G0 F10500 X80.147 Y90.618
G1 F2400 X108.089 Y62.676 E520.40895
G0 F10500 X107.382 Y62.676
G1 F2400 X79.220 Y90.838 E521.18933
G0 F10500 X78.259 Y91.093
G1 F2400 X106.675 Y62.676 E521.97677
G0 F10500 X105.968 Y62.676
G1 F2400 X77.174 Y91.470 E522.77467
G0 F10500 X75.990 Y91.947
G1 F2400 X105.261 Y62.676 E523.58578
G0 F10500 X104.554 Y62.676
G1 F2400 X74.633 Y92.597 E524.41491
G0 F10500 X72.935 Y93.588
G1 F2400 X103.847 Y62.676 E525.27150
G0 F10500 X103.140 Y62.676
G1 F2400 X69.634 Y96.182 E526.19997
G0 F10500 X67.127 Y97.981
G1 F2400 X102.432 Y62.676 E527.17829
G0 F10500 X101.725 Y62.676
G1 F2400 X65.763 Y98.639 E528.17483
G0 F10500 X64.676 Y99.018
G1 F2400 X101.018 Y62.676 E529.18189
G0 F10500 X100.311 Y62.676
G1 F2400 X63.729 Y99.258 E530.19560
G0 F10500 X62.863 Y99.417
G1 F2400 X99.604 Y62.676 E531.21371
G0 F10500 X98.897 Y62.676
G1 F2400 X62.052 Y99.521 E532.23471
G0 F10500 X61.309 Y99.557
G1 F2400 X98.190 Y62.676 E533.25670
G0 F10500 X97.483 Y62.676
G1 F2400 X60.584 Y99.574 E534.27918
G0 F10500 X54.928 Y99.574
G1 F2400 X69.254 Y85.248 E534.67616
G0 F10500 X68.242 Y85.553
G1 F2400 X54.220 Y99.574 E535.06470
G0 F10500 X53.513 Y99.574
G1 F2400 X67.412 Y85.675 E535.44985
G0 F10500 X66.771 Y85.610
G1 F2400 X52.806 Y99.574 E535.83682
G0 F10500 X52.099 Y99.574
G1 F2400 X66.137 Y85.537 E536.22581
G0 F10500 X65.607 Y85.359
G1 F2400 X51.392 Y99.574 E536.61971
G0 F10500 X50.685 Y99.574
G1 F2400 X65.101 Y85.158 E537.01919
G0 F10500 X64.627 Y84.925
G1 F2400 X49.978 Y99.574 E537.42512
G0 F10500 X49.271 Y99.574
G1 F2400 X64.222 Y84.623 E537.83942
G0 F10500 X63.819 Y84.319
G1 F2400 X48.564 Y99.574 E538.26214
G0 F10500 X47.856 Y99.574
G1 F2400 X63.470 Y83.961 E538.69480
G0 F10500 X63.160 Y83.563
G1 F2400 X47.149 Y99.574 E539.13848
G0 F10500 X46.442 Y99.574
G1 F2400 X62.851 Y83.165 E539.59318
G0 F10500 X62.630 Y82.679
G1 F2400 X45.735 Y99.574 E540.06135
G0 F10500 X45.028 Y99.574
G1 F2400 X62.421 Y82.181 E540.54332
G0 F10500 X62.256 Y81.639
G1 F2400 X44.321 Y99.574 E541.04031
G0 F10500 X43.614 Y99.574
G1 F2400 X62.173 Y81.016 E541.55457
G0 F10500 X62.122 Y80.359
G1 F2400 X42.907 Y99.574 E542.08703
G0 F10500 X42.200 Y99.574
G1 F2400 X62.232 Y79.542 E542.64213
G0 F10500 X62.545 Y78.522
G1 F2400 X54.738 Y86.329 E542.85847
G0 F10500 X54.541 Y86.526
G1 F2400 X41.493 Y99.574 E543.22004
G0 F10500 X40.785 Y99.574
G1 F2400 X53.834 Y86.526 E543.58162
G0 F10500 X53.127 Y86.526
G1 F2400 X40.078 Y99.574 E543.94320
G0 F10500 X39.371 Y99.574
G1 F2400 X52.419 Y86.526 E544.30477
G0 F10500 X51.712 Y86.526
G1 F2400 X38.664 Y99.574 E544.66633
G0 F10500 X37.957 Y99.574
G1 F2400 X51.005 Y86.526 E545.02790
G0 F10500 X50.298 Y86.526
G1 F2400 X37.250 Y99.574 E545.38947
G0 F10500 X36.543 Y99.574
G1 F2400 X49.591 Y86.526 E545.75104
G0 F10500 X48.884 Y86.526
G1 F2400 X35.836 Y99.574 E546.11260
G0 F10500 X35.129 Y99.574
G1 F2400 X48.177 Y86.526 E546.47417
G0 F10500 X47.470 Y86.526
G1 F2400 X34.446 Y99.550 E546.83507
G0 F10500 X33.821 Y99.468
G1 F2400 X46.763 Y86.526 E547.19370
G0 F10500 X46.055 Y86.526
G1 F2400 X33.253 Y99.329 E547.54847
G0 F10500 X32.730 Y99.144
G1 F2400 X45.348 Y86.526 E547.89812
G0 F10500 X44.641 Y86.526
G1 F2400 X32.256 Y98.911 E548.24131
G0 F10500 X31.821 Y98.639
G1 F2400 X43.934 Y86.526 E548.57697
G0 F10500 X43.227 Y86.526
G1 F2400 X31.416 Y98.337 E548.90426
G0 F10500 X31.042 Y98.004
G1 F2400 X42.520 Y86.526 E549.22232
G0 F10500 X41.813 Y86.526
G1 F2400 X30.711 Y97.628 E549.52997
G0 F10500 X30.411 Y97.221
G1 F2400 X41.106 Y86.526 E549.82633
G0 F10500 X40.399 Y86.526
G1 F2400 X30.141 Y96.784 E550.11059
G0 F10500 X29.908 Y96.310
G1 F2400 X39.692 Y86.526 E550.38171
G0 F10500 X39.012 Y86.498
G1 F2400 X29.725 Y95.786 E550.63907
G0 F10500 X29.589 Y95.214
G1 F2400 X39.012 Y85.791 E550.90019
G0 F10500 X39.012 Y85.084
G1 F2400 X29.511 Y94.586 E551.16348
G0 F10500 X29.487 Y93.902
G1 F2400 X39.012 Y84.377 E551.42742
G0 F10500 X39.012 Y83.670
G1 F2400 X29.487 Y93.195 E551.69136
G0 F10500 X29.487 Y92.488
G1 F2400 X39.012 Y82.963 E551.95531
G0 F10500 X39.012 Y82.256
G1 F2400 X29.487 Y91.781 E552.21925
G0 F10500 X29.487 Y91.073
G1 F2400 X39.012 Y81.549 E552.48318
G0 F10500 X39.012 Y80.842
G1 F2400 X29.487 Y90.366 E552.74711
G0 F10500 X29.487 Y89.659
G1 F2400 X39.012 Y80.134 E553.01105
G0 F10500 X39.012 Y79.427
G1 F2400 X29.487 Y88.952 E553.27499
G0 F10500 X29.487 Y88.245
G1 F2400 X39.012 Y78.720 E553.53894
G0 F10500 X39.012 Y78.013
G1 F2400 X29.487 Y87.538 E553.80288
G0 F10500 X29.487 Y86.831
G1 F2400 X39.012 Y77.306 E554.06682
G0 F10500 X39.012 Y76.599
G1 F2400 X29.487 Y86.124 E554.33077
G0 F10500 X29.487 Y85.417
G1 F2400 X39.012 Y75.892 E554.59471
G0 F10500 X39.124 Y75.779
G1 F2400 X52.228 Y62.676 E554.95782
G0 F10500 X52.935 Y62.676
G1 F2400 X39.832 Y75.779 E555.32091
G0 F10500 X29.487 Y75.517
G1 F2400 X42.328 Y62.676 E555.67674
G0 F10500 X43.035 Y62.676
G1 F2400 X29.487 Y76.224 E556.05216
G0 F10500 X29.487 Y76.931
G1 F2400 X43.743 Y62.676 E556.44719
G0 F10500 X44.450 Y62.676
G1 F2400 X29.487 Y77.638 E556.86181
G0 F10500 X29.487 Y78.346
G1 F2400 X45.157 Y62.676 E557.29603
G0 F10500 X45.864 Y62.676
G1 F2400 X29.487 Y79.053 E557.74985
G0 F10500 X29.487 Y79.760
G1 F2400 X46.571 Y62.676 E558.22326
G0 F10500 X47.278 Y62.676
G1 F2400 X29.487 Y80.467 E558.71626
G0 F10500 X29.487 Y81.174
G1 F2400 X47.985 Y62.676 E559.22885
G0 F10500 X48.692 Y62.676
G1 F2400 X29.487 Y81.881 E559.76103
G0 F10500 X29.487 Y82.588
G1 F2400 X49.399 Y62.676 E560.31280
G0 F10500 X50.107 Y62.676
G1 F2400 X29.487 Y83.295 E560.88418
G0 F10500 X29.487 Y84.002
G1 F2400 X50.814 Y62.676 E561.47515
G0 F10500 X51.521 Y62.676
G1 F2400 X29.487 Y84.709 E562.08571
G0 F10500 X29.487 Y74.810
G1 F2400 X41.621 Y62.676 E562.42195
G0 F10500 X40.914 Y62.676
G1 F2400 X29.487 Y74.103 E562.73860
G0 F10500 X29.487 Y73.396
G1 F2400 X40.207 Y62.676 E563.03565
G0 F10500 X40.539 Y75.779
G1 F2400 X53.642 Y62.676 E563.39875
G0 F10500 X54.349 Y62.676
G1 F2400 X41.246 Y75.779 E563.76184
G0 F10500 X41.953 Y75.779
G1 F2400 X55.056 Y62.676 E564.12493
G0 F10500 X55.763 Y62.676
G1 F2400 X42.660 Y75.779 E564.48802
G0 F10500 X43.367 Y75.779
G1 F2400 X56.470 Y62.676 E564.85111
G0 F10500 X57.178 Y62.676
G1 F2400 X44.074 Y75.779 E565.21422
G0 F10500 X44.781 Y75.779
G1 F2400 X57.885 Y62.676 E565.57732
G0 F10500 X58.592 Y62.676
G1 F2400 X45.488 Y75.779 E565.94043
G0 F10500 X46.195 Y75.779
G1 F2400 X59.299 Y62.676 E566.30353
G0 F10500 X60.006 Y62.676
G1 F2400 X46.903 Y75.779 E566.66662
G0 F10500 X47.610 Y75.779
G1 F2400 X60.713 Y62.676 E567.02972
G0 F10500 X61.420 Y62.676
G1 F2400 X48.317 Y75.779 E567.39281
G0 F10500 X49.024 Y75.779
G1 F2400 X62.127 Y62.676 E567.75590
G0 F10500 X62.834 Y62.676
G1 F2400 X49.731 Y75.779 E568.11899
G0 F10500 X50.438 Y75.779
G1 F2400 X63.542 Y62.676 E568.48210
G0 F10500 X64.249 Y62.676
G1 F2400 X51.145 Y75.779 E568.84520
G0 F10500 X51.852 Y75.779
G1 F2400 X64.956 Y62.676 E569.20831
G0 F10500 X65.663 Y62.676
G1 F2400 X52.559 Y75.779 E569.57141
G0 F10500 X53.267 Y75.779
G1 F2400 X66.370 Y62.676 E569.93450
G0 F10500 X67.077 Y62.676
G1 F2400 X53.974 Y75.779 E570.29760
G0 F10500 X54.681 Y75.779
G1 F2400 X67.784 Y62.676 E570.66069
G0 F10500 X68.491 Y62.676
G1 F2400 X54.738 Y76.429 E571.04179
G0 F10500 X54.738 Y77.136
G1 F2400 X69.198 Y62.676 E571.44249
G0 F10500 X69.905 Y62.676
G1 F2400 X54.738 Y77.843 E571.86277
G0 F10500 X54.738 Y78.551
G1 F2400 X70.613 Y62.676 E572.30268
G0 F10500 X71.320 Y62.676
G1 F2400 X54.738 Y79.258 E572.76217
G0 F10500 X54.738 Y79.965
G1 F2400 X72.027 Y62.676 E573.24126
G0 F10500 X72.734 Y62.676
G1 F2400 X54.738 Y80.672 E573.73994
G0 F10500 X54.738 Y81.379
G1 F2400 X73.441 Y62.676 E574.25821
G0 F10500 X74.148 Y62.676
G1 F2400 X54.738 Y82.086 E574.79607
G0 F10500 X54.738 Y82.793
G1 F2400 X74.855 Y62.676 E575.35353
G0 F10500 X75.562 Y62.676
G1 F2400 X54.738 Y83.500 E575.93057
G0 F10500 X54.738 Y84.207
G1 F2400 X76.269 Y62.676 E576.52721
G0 F10500 X76.977 Y62.676
G1 F2400 X54.738 Y84.915 E577.14346
G0 F10500 X54.738 Y85.622
G1 F2400 X77.684 Y62.676 E577.77931
G0 F10500 X78.391 Y62.676
G1 F2400 X65.310 Y75.757 E578.14179
G0 F10500 X66.336 Y75.438
G1 F2400 X79.098 Y62.676 E578.49543
G0 F10500 X79.805 Y62.676
G1 F2400 X67.134 Y75.347 E578.84655
G0 F10500 X67.807 Y75.381
G1 F2400 X80.512 Y62.676 E579.19862
G0 F10500 X81.219 Y62.676
G1 F2400 X68.424 Y75.471 E579.55317
G0 F10500 X68.974 Y75.629
G1 F2400 X81.926 Y62.676 E579.91210
G0 F10500 X82.633 Y62.676
G1 F2400 X69.468 Y75.842 E580.27692
G0 F10500 X69.956 Y76.060
G1 F2400 X83.341 Y62.676 E580.64781
G0 F10500 X84.048 Y62.676
G1 F2400 X70.352 Y76.371 E581.02732
G0 F10500 X70.749 Y76.682
G1 F2400 X84.755 Y62.676 E581.41544
G0 F10500 X85.462 Y62.676
G1 F2400 X71.108 Y77.030 E581.81319
G0 F10500 X71.413 Y77.432
G1 F2400 X86.169 Y62.676 E582.22209
G0 F10500 X86.876 Y62.676
G1 F2400 X71.718 Y77.834 E582.64213
G0 F10500 X71.948 Y78.312
G1 F2400 X87.583 Y62.676 E583.07540
G0 F10500 X88.290 Y62.676
G1 F2400 X72.153 Y78.814 E583.52257
G0 F10500 X72.322 Y79.352
G1 F2400 X88.997 Y62.676 E583.98466
G0 F10500 X89.704 Y62.676
G1 F2400 X72.403 Y79.978 E584.46410
G0 F10500 X72.452 Y80.635
G1 F2400 X90.412 Y62.676 E584.96176
G0 F10500 X91.119 Y62.676
G1 F2400 X72.347 Y81.448 E585.48195
G0 F10500 X72.037 Y82.465
G1 F2400 X91.826 Y62.676 E586.03031
G0 F10500 X92.533 Y62.676
G1 F2400 X55.635 Y99.574 E587.05278
G0 F10500 X56.342 Y99.574
G1 F2400 X93.240 Y62.676 E588.07524
G0 F10500 X93.947 Y62.676
G1 F2400 X57.049 Y99.574 E589.09771
G0 F10500 X57.756 Y99.574
G1 F2400 X94.654 Y62.676 E590.12017
G0 F10500 X95.361 Y62.676
G1 F2400 X58.463 Y99.574 E591.14263
G0 F10500 X59.170 Y99.574
G1 F2400 X96.068 Y62.676 E592.16510
G0 F10500 X96.776 Y62.676
G1 F2400 X59.877 Y99.574 E593.18758
G0 F10500 X39.297 Y86.243
G0 X29.487 Y72.689
G1 F2400 X39.500 Y62.676 E593.46504
G0 F10500 X38.793 Y62.676
G1 F2400 X29.487 Y71.982 E593.72292
G0 F10500 X29.487 Y71.274
G1 F2400 X38.086 Y62.676 E593.96119
G0 F10500 X37.379 Y62.676
G1 F2400 X29.487 Y70.567 E594.17986
G0 F10500 X29.487 Y69.860
G1 F2400 X36.671 Y62.676 E594.37894
G0 F10500 X35.964 Y62.676
G1 F2400 X29.487 Y69.153 E594.55842
G0 F10500 X29.487 Y68.446
G1 F2400 X35.257 Y62.676 E594.71831
G0 F10500 X34.550 Y62.676
G1 F2400 X29.487 Y67.739 E594.85861
G0 F10500 X29.487 Y67.032
G1 F2400 X33.843 Y62.676 E594.97931
G0 F10500 X33.136 Y62.676
G1 F2400 X29.487 Y66.325 E595.08043
G0 F10500 X29.487 Y65.618
G1 F2400 X32.429 Y62.676 E595.16195
G0 F10500 X31.722 Y62.676
G1 F2400 X29.487 Y64.910 E595.22387
G0 F10500 X29.487 Y64.203
G1 F2400 X31.015 Y62.676 E595.26620
G0 F10500 X30.308 Y62.676
G1 F2400 X29.487 Y63.496 E595.28894
G0 F10500 X29.487 Y62.789
G1 F2400 X29.600 Y62.676 E595.29207
;LAYER:4
G0 F10500 X32.334 Y62.293 Z1.425
;TYPE:WALL-INNER
G1 F2100 X123.051 Y62.292 E597.06961
G1 X123.557 Y62.293 E597.07952
G1 X130.337 Y62.293 E597.21237
G1 X130.422 Y62.292 E597.21404
G1 X130.687 Y62.293 E597.21923
G1 X130.687 Y84.954 E597.66326
G1 X114.075 Y90.341 E598.00545
G1 X108.876 Y90.341 E598.10732
G1 X108.583 Y90.216 E598.11356
G1 X107.897 Y90.086 E598.12724
G1 X107.662 Y90.043 E598.13192
G1 X106.986 Y90.084 E598.14519
G1 X106.754 Y90.100 E598.14975
G1 X105.984 Y90.339 E598.16555
G1 X84.426 Y90.341 E598.58796
G1 X83.070 Y90.393 E598.61455
G1 X82.840 Y90.402 E598.61906
G1 X81.251 Y90.584 E598.65040
G1 X79.881 Y90.848 E598.67774
G1 X78.363 Y91.248 E598.70850
G1 X78.138 Y91.309 E598.71306
G1 X76.823 Y91.778 E598.74042
G1 X75.382 Y92.405 E598.77121
G1 X73.962 Y93.150 E598.80263
G1 X73.760 Y93.260 E598.80714
G1 X72.607 Y94.001 E598.83400
G1 X71.320 Y94.953 E598.86536
G1 X70.117 Y95.996 E598.89656
G1 X69.005 Y96.963 E598.92544
G1 X67.992 Y97.684 E598.94980
G1 X66.929 Y98.299 E598.97386
G1 X65.802 Y98.814 E598.99814
G1 X64.625 Y99.222 E599.02255
G1 X63.420 Y99.515 E599.04685
G1 X62.202 Y99.690 E599.07096
G1 X60.948 Y99.750 E599.09556
G1 X34.833 Y99.750 E599.60727
G1 X34.100 Y99.702 E599.62166
G1 X33.385 Y99.560 E599.63594
G1 X32.707 Y99.329 E599.64998
G1 X32.067 Y99.013 E599.66396
G1 X31.468 Y98.614 E599.67807
G1 X30.922 Y98.134 E599.69231
G1 X30.453 Y97.599 E599.70625
G1 X30.050 Y96.997 E599.72045
G1 X29.733 Y96.352 E599.73453
G1 X29.504 Y95.678 E599.74848
G1 X29.360 Y94.960 E599.76283
G1 X29.313 Y94.232 E599.77712
G1 X29.313 Y62.293 E600.40294
G1 X32.334 Y62.293 E600.46214
G0 F10500 X39.188 Y75.407
G1 F2100 X39.188 Y86.900 E600.68734
G1 X54.563 Y86.901 E600.98860
G1 X54.563 Y75.408 E601.21380
G1 X39.188 Y75.407 E601.51506
G0 F10500 X54.454 Y75.517
G0 X62.456 Y79.189
G1 F2100 X62.281 Y80.500 E601.54098
G1 X62.456 Y81.810 E601.56687
G1 X62.967 Y83.028 E601.59275
G1 X63.779 Y84.071 E601.61865
G1 X64.836 Y84.865 E601.64456
G1 X66.064 Y85.354 E601.67046
G1 X67.375 Y85.505 E601.69631
G1 X68.654 Y85.316 E601.72165
G1 X69.842 Y84.806 E601.74698
G1 X70.860 Y84.008 E601.77233
G1 X71.638 Y82.977 E601.79763
G1 X72.127 Y81.781 E601.82295
G1 X72.294 Y80.500 E601.84826
G1 X72.127 Y79.218 E601.87360
G1 X71.638 Y78.022 E601.89891
